;PancakePainter v1.4.0 GCODE header start
;Originally generated @ Wed Dec 03 2025 13:45:00 GMT+0100 (CET)
;Settings used to generate this file:
;----------------------------------------
;botSpeed: 4620
;flattenResolution: 2
;lineEndPreShutoff: 21
;startWait: 197
;endWait: 250
;shadeChangeWait: 20
;useLineFill: false
;useShortest: true
;shapeFillWidth: 1.2
;fillSpacing: 17
;fillAngle: -39
;fillGroupThreshold: 13
;useColorSpeed: false
;botColorSpeed: 6600,5280,5280,3300
;----------------------------------------
;W1 X42 Y210 L485 T0 ;Define Workspace of this file ;Removed for Marlin compatibility
G21 ;Set units to MM
G90 ;Absolute positioning
G28 X0 Y0 ;Home X and Y axes to origin
G00 Z0 ;Move Z to 0mm (valve closed)
G00 X0 Y0 ;Move to origin (0,0)
G1 F4620 ;Set Speed
G4 P1000 ;Pause for 1000 milliseconds
;PancakePainter header complete
;Starting fill path #1/13, segments: 47, length: 2762, color #4, too small to fill, outline only
G00 X117.257 Y114.009
G00 Z10 ;Valve open
G4 P197 ;Pause for 197 milliseconds
G00 X117.257 Y89.832
G00 X117.308 Y81.379
G00 X118.142 Y77.355
G00 X120.199 Y73.661
G00 X123.038 Y71.325
G00 X126.369 Y70.197
G00 X133.589 Y69.818
G00 X164.651 Y69.818
G00 X172.354 Y70.453
G00 X175.748 Y71.929
G00 X178.526 Y74.781
G00 X180.169 Y78.612
G00 X180.758 Y82.780
G00 X180.662 Y91.273
G00 X180.662 Y111.767
G00 X180.454 Y123.295
G00 X178.420 Y128.579
G00 X175.986 Y130.557
G00 X173.282 Y132.323
G00 X169.306 Y133.163
G00 X165.054 Y133.337
G00 X156.645 Y133.062
G00 X123.661 Y133.062
G00 X125.041 Y130.822
G00 X129.746 Y126.138
G00 X146.880 Y108.891
G00 X152.416 Y103.472
G00 X153.397 Y102.505
G00 X154.559 Y102.418
G00 X154.891 Y104.688
G00 X154.723 Y107.124
G00 X154.633 Y111.925
G00 X152.343 Y114.495
G00 X146.971 Y120.031
G00 X144.237 Y122.472
G00 X142.235 Y125.376
G00 X163.209 Y125.376
G00 X167.545 Y125.515
G00 X169.704 Y125.241
G00 X171.533 Y124.341
G00 X172.793 Y122.295
G00 X173.175 Y119.565
G00 X172.976 Y114.169
G00 X172.976 Y88.231
G00 X173.152 Y83.209
G00 X172.807 Y80.648
G00 X171.675 Y78.684
G00 X169.379 Y77.559
G00 X166.476 Y77.258
G00 X160.808 Y77.503
G00 X138.072 Y77.503
G00 X132.719 Y77.260
G00 X127.504 Y77.870
G00 X126.031 Y78.900
G00 X125.269 Y80.400
G00 X124.942 Y83.907
G00 X124.942 Y106.163
G00 X125.369 Y108.125
G00 X126.282 Y107.864
G00 X127.051 Y107.078
G00 X129.701 Y104.341
G00 X131.886 Y102.130
G00 X136.153 Y97.991
G00 X138.552 Y95.921
G00 X141.320 Y95.620
G00 X144.156 Y95.756
G00 X146.171 Y95.631
G00 X148.108 Y95.875
G00 X148.074 Y97.010
G00 X147.085 Y98.087
G00 X141.502 Y103.734
G00 X124.142 Y121.054
G00 X119.680 Y125.417
G00 X118.674 Y126.486
G00 X117.417 Y127.138
G00 X117.164 Y123.279
G00 X117.134 Y118.967
;Nearing path end, moving to preshutoff position
G00 X117.155 Y117.977
G00 Z0 ;Valve closed
G00 X117.206 Y115.458
G00 X117.257 Y114.009
G4 P250 ;Pause for 250 milliseconds
;Completed path #1/13 on color #4
;Starting fill path #2/13, segments: 84, length: 174, color #4
G00 X124.757 Y113.449
G00 Z10 ;Valve open
G4 P197 ;Pause for 197 milliseconds
G00 X124.694 Y113.437
G00 X124.592 Y113.417
G00 X124.496 Y113.395
G00 X124.415 Y113.375
G00 X124.278 Y113.337
G00 X124.186 Y113.310
G00 X124.096 Y113.281
G00 X124.010 Y113.251
G00 X123.872 Y113.199
G00 X123.788 Y113.166
G00 X123.689 Y113.124
G00 X123.598 Y113.083
G00 X123.465 Y113.018
G00 X123.376 Y112.972
G00 X123.287 Y112.923
G00 X123.188 Y112.866
G00 X122.453 Y112.416
G00 X122.453 Y115.753
G00 X124.757 Y113.449
G00 X127.033 Y112.385
G00 X126.945 Y112.420
G00 X126.878 Y112.444
G00 X126.799 Y112.471
G00 X126.717 Y112.498
G00 X126.606 Y112.529
G00 X126.531 Y112.550
G00 X126.457 Y112.567
G00 X126.383 Y112.583
G00 X126.265 Y112.606
G00 X126.185 Y112.620
G00 X126.107 Y112.631
G00 X126.029 Y112.641
G00 X125.906 Y112.653
G00 X125.821 Y112.659
G00 X125.750 Y112.663
G00 X125.673 Y112.665
G00 X125.552 Y112.665
G00 X125.475 Y112.664
G00 X125.395 Y112.661
G00 X125.330 Y112.657
G00 X125.209 Y112.647
G00 X125.130 Y112.639
G00 X125.057 Y112.629
G00 X124.972 Y112.617
G00 X124.847 Y112.593
G00 X124.764 Y112.577
G00 X124.688 Y112.559
G00 X124.622 Y112.543
G00 X124.507 Y112.511
G00 X124.433 Y112.489
G00 X124.362 Y112.465
G00 X124.290 Y112.441
G00 X124.175 Y112.397
G00 X124.105 Y112.369
G00 X124.028 Y112.336
G00 X123.955 Y112.303
G00 X123.842 Y112.248
G00 X123.770 Y112.210
G00 X123.698 Y112.171
G00 X123.618 Y112.125
G00 X122.780 Y111.611
G00 X122.689 Y111.552
G00 X122.588 Y111.484
G00 X122.523 Y111.437
G00 X122.487 Y111.411
G00 X122.438 Y111.374
G00 X122.361 Y111.313
G00 X122.319 Y111.277
G00 X122.264 Y111.230
G00 X122.203 Y111.176
G00 X122.123 Y111.100
G00 X122.073 Y111.052
G00 X122.016 Y110.994
G00 X121.957 Y110.930
G00 X121.877 Y110.840
G00 X121.827 Y110.781
G00 X121.777 Y110.720
G00 X121.735 Y110.666
G00 X121.665 Y110.571
G00 X121.621 Y110.508
G00 X121.595 Y110.470
G00 X121.595 Y117.823
;Nearing path end, moving to preshutoff position
G00 X124.225 Y115.193
G00 Z0 ;Valve closed
G00 X127.033 Y112.385
G4 P250 ;Pause for 250 milliseconds
;Completed path #2/13 on color #4
;Starting fill path #3/13, segments: 50, length: 2741, color #4, too small to fill, outline only
G00 X117.737 Y126.337
G00 Z10 ;Valve open
G4 P197 ;Pause for 197 milliseconds
G00 X120.502 Y124.539
G00 X122.861 Y122.015
G00 X131.827 Y113.048
G00 X133.653 Y110.977
G00 X135.670 Y109.205
G00 X137.431 Y107.443
G00 X140.546 Y104.194
G00 X142.395 Y102.481
G00 X145.390 Y99.499
G00 X146.968 Y97.997
G00 X147.839 Y96.236
G00 X141.114 Y96.236
G00 X137.911 Y96.680
G00 X134.901 Y99.696
G00 X129.238 Y105.368
G00 X127.544 Y107.303
G00 X125.589 Y108.808
G00 X124.801 Y108.323
G00 X124.623 Y107.284
G00 X124.622 Y101.360
G00 X124.622 Y84.227
G00 X124.986 Y80.215
G00 X125.887 Y78.599
G00 X127.665 Y77.439
G00 X132.884 Y76.795
G00 X138.232 Y77.023
G00 X160.808 Y77.023
G00 X166.444 Y76.824
G00 X169.309 Y77.146
G00 X171.668 Y78.257
G00 X173.052 Y80.388
G00 X173.487 Y83.151
G00 X173.297 Y88.711
G00 X173.297 Y114.809
G00 X173.405 Y120.152
G00 X172.915 Y122.729
G00 X171.509 Y124.861
G00 X168.384 Y125.913
G00 X164.971 Y125.857
G00 X148.639 Y125.857
G00 X143.516 Y125.857
G00 X142.552 Y125.814
G00 X141.783 Y125.332
G00 X142.050 Y124.470
G00 X142.756 Y123.770
G00 X147.045 Y119.567
G00 X152.002 Y114.442
G00 X154.261 Y111.913
G00 X154.538 Y109.393
G00 X154.403 Y106.804
G00 X154.528 Y104.871
G00 X154.307 Y103.015
G00 X153.283 Y103.200
G00 X152.314 Y104.180
G00 X146.880 Y109.526
G00 X131.027 Y125.509
G00 X127.364 Y128.836
G00 X124.302 Y132.582
G00 X128.625 Y132.742
G00 X165.451 Y132.742
G00 X170.652 Y132.588
G00 X173.148 Y132.007
G00 X175.422 Y130.741
G00 X176.581 Y129.892
G00 X177.300 Y128.739
G00 X178.516 Y127.588
G00 X179.303 Y126.017
G00 X180.241 Y121.127
G00 X180.182 Y116.090
G00 X180.182 Y87.910
G00 X180.145 Y80.920
G00 X179.489 Y77.553
G00 X177.866 Y74.461
G00 X175.000 Y71.911
G00 X171.701 Y70.691
G00 X164.331 Y70.298
G00 X134.069 Y70.295
G00 X129.738 Y70.296
G00 X125.642 Y70.871
G00 X122.025 Y72.560
G00 X119.129 Y75.902
G00 X117.858 Y79.529
G00 X117.496 Y83.561
G00 X117.737 Y91.593
;Nearing path end, moving to preshutoff position
G00 X117.737 Y122.367
G00 Z0 ;Valve closed
G00 X117.737 Y126.337
G4 P250 ;Pause for 250 milliseconds
;Completed path #3/13 on color #4
;Starting fill path #4/13, segments: 1612, length: 10619, color #4
G00 X137.145 Y126.188
G00 Z10 ;Valve open
G4 P197 ;Pause for 197 milliseconds
G00 X137.163 Y126.281
G00 X137.185 Y126.380
G00 X137.209 Y126.479
G00 X137.247 Y126.623
G00 X137.271 Y126.703
G00 X137.297 Y126.787
G00 X137.331 Y126.887
G00 X137.379 Y127.019
G00 X137.413 Y127.104
G00 X137.451 Y127.195
G00 X137.489 Y127.282
G00 X137.551 Y127.414
G00 X137.599 Y127.509
G00 X137.645 Y127.595
G00 X137.696 Y127.686
G00 X137.772 Y127.813
G00 X137.818 Y127.885
G00 X137.871 Y127.966
G00 X137.913 Y128.026
G00 X135.173 Y128.026
G00 X137.124 Y126.060
G00 X137.145 Y126.188
G00 X137.987 Y126.026
G00 X138.002 Y126.101
G00 X138.019 Y126.180
G00 X138.037 Y126.259
G00 X138.070 Y126.382
G00 X138.089 Y126.448
G00 X138.110 Y126.515
G00 X138.137 Y126.595
G00 X138.178 Y126.707
G00 X138.204 Y126.775
G00 X138.235 Y126.848
G00 X138.266 Y126.919
G00 X138.317 Y127.029
G00 X138.356 Y127.107
G00 X138.393 Y127.176
G00 X138.434 Y127.248
G00 X138.498 Y127.356
G00 X138.535 Y127.416
G00 X138.577 Y127.479
G00 X138.620 Y127.542
G00 X138.686 Y127.634
G00 X138.736 Y127.700
G00 X138.787 Y127.764
G00 X138.836 Y127.822
G00 X138.915 Y127.913
G00 X138.963 Y127.966
G00 X139.014 Y128.020
G00 X139.071 Y128.076
G00 X139.157 Y128.159
G00 X139.216 Y128.213
G00 X139.266 Y128.257
G00 X139.310 Y128.295
G00 X139.393 Y128.362
G00 X139.467 Y128.419
G00 X139.540 Y128.472
G00 X139.637 Y128.540
G00 X139.735 Y128.603
G00 X140.184 Y128.883
G00 X133.050 Y128.883
G00 X133.662 Y128.328
G00 X133.712 Y128.281
G00 X133.766 Y128.227
G00 X138.246 Y123.711
G00 X138.077 Y124.256
G00 X138.055 Y124.338
G00 X138.034 Y124.419
G00 X138.017 Y124.493
G00 X137.992 Y124.612
G00 X137.977 Y124.696
G00 X137.965 Y124.776
G00 X137.955 Y124.852
G00 X137.941 Y124.970
G00 X137.935 Y125.046
G00 X137.930 Y125.122
G00 X137.927 Y125.197
G00 X137.924 Y125.308
G00 X137.924 Y125.389
G00 X137.926 Y125.469
G00 X137.931 Y125.553
G00 X137.940 Y125.683
G00 X137.948 Y125.759
G00 X137.956 Y125.830
G00 X137.968 Y125.909
G00 X137.987 Y126.026
G00 X138.829 Y125.867
G00 X138.840 Y125.923
G00 X138.853 Y125.982
G00 X138.867 Y126.042
G00 X138.893 Y126.142
G00 X138.909 Y126.195
G00 X138.925 Y126.247
G00 X138.944 Y126.304
G00 X138.977 Y126.396
G00 X138.997 Y126.448
G00 X139.020 Y126.503
G00 X139.044 Y126.558
G00 X139.086 Y126.648
G00 X139.115 Y126.706
G00 X139.142 Y126.758
G00 X139.173 Y126.812
G00 X139.224 Y126.900
G00 X139.254 Y126.948
G00 X139.285 Y126.995
G00 X139.317 Y127.042
G00 X139.373 Y127.120
G00 X139.409 Y127.168
G00 X139.446 Y127.216
G00 X139.484 Y127.261
G00 X139.548 Y127.335
G00 X139.587 Y127.377
G00 X139.625 Y127.417
G00 X139.666 Y127.460
G00 X139.737 Y127.528
G00 X139.782 Y127.569
G00 X139.822 Y127.604
G00 X139.854 Y127.631
G00 X139.917 Y127.683
G00 X139.974 Y127.727
G00 X140.031 Y127.768
G00 X140.110 Y127.823
G00 X140.189 Y127.876
G00 X140.995 Y128.380
G00 X141.057 Y128.416
G00 X141.109 Y128.445
G00 X141.161 Y128.473
G00 X141.251 Y128.519
G00 X141.308 Y128.545
G00 X141.364 Y128.570
G00 X141.418 Y128.592
G00 X141.508 Y128.627
G00 X141.563 Y128.648
G00 X141.621 Y128.667
G00 X141.677 Y128.684
G00 X141.772 Y128.712
G00 X141.828 Y128.726
G00 X141.882 Y128.739
G00 X141.940 Y128.752
G00 X142.035 Y128.770
G00 X142.092 Y128.780
G00 X142.150 Y128.788
G00 X142.200 Y128.794
G00 X142.283 Y128.803
G00 X142.343 Y128.808
G00 X142.421 Y128.812
G00 X143.450 Y128.857
G00 X143.516 Y128.858
G00 X164.922 Y128.858
G00 X168.380 Y128.914
G00 X168.460 Y128.913
G00 X168.520 Y128.911
G00 X168.576 Y128.907
G00 X168.669 Y128.900
G00 X168.725 Y128.894
G00 X168.781 Y128.887
G00 X168.842 Y128.878
G00 X168.941 Y128.861
G00 X168.998 Y128.850
G00 X169.052 Y128.838
G00 X169.102 Y128.826
G00 X169.184 Y128.805
G00 X169.236 Y128.790
G00 X169.291 Y128.773
G00 X169.342 Y128.757
G00 X172.505 Y127.691
G00 X172.578 Y127.664
G00 X172.634 Y127.642
G00 X172.687 Y127.620
G00 X172.776 Y127.580
G00 X172.833 Y127.553
G00 X172.887 Y127.526
G00 X172.941 Y127.497
G00 X173.028 Y127.448
G00 X173.075 Y127.419
G00 X173.123 Y127.390
G00 X173.175 Y127.356
G00 X173.259 Y127.298
G00 X173.304 Y127.264
G00 X173.349 Y127.230
G00 X173.392 Y127.196
G00 X173.464 Y127.136
G00 X173.510 Y127.096
G00 X173.555 Y127.055
G00 X173.600 Y127.012
G00 X173.673 Y126.938
G00 X173.715 Y126.894
G00 X173.773 Y126.830
G00 X173.825 Y126.768
G00 X173.870 Y126.712
G00 X173.910 Y126.659
G00 X173.963 Y126.587
G00 X174.013 Y126.514
G00 X175.444 Y124.345
G00 X175.479 Y124.289
G00 X175.524 Y124.211
G00 X175.563 Y124.141
G00 X175.594 Y124.082
G00 X175.617 Y124.034
G00 X175.642 Y123.982
G00 X175.664 Y123.931
G00 X175.700 Y123.846
G00 X175.723 Y123.789
G00 X175.753 Y123.706
G00 X175.777 Y123.631
G00 X175.792 Y123.585
G00 X175.800 Y123.555
G00 X175.820 Y123.483
G00 X175.843 Y123.384
G00 X175.864 Y123.289
G00 X176.361 Y120.668
G00 X176.375 Y120.582
G00 X176.386 Y120.495
G00 X176.394 Y120.420
G00 X176.399 Y120.352
G00 X176.402 Y120.297
G00 X176.405 Y120.228
G00 X176.405 Y120.186
G00 X176.405 Y120.092
G00 X176.297 Y114.775
G00 X176.297 Y88.776
G00 X176.487 Y83.208
G00 X176.488 Y83.131
G00 X176.486 Y83.070
G00 X176.484 Y83.014
G00 X176.478 Y82.919
G00 X176.473 Y82.855
G00 X176.463 Y82.770
G00 X176.451 Y82.685
G00 X176.010 Y79.880
G00 X175.996 Y79.801
G00 X175.983 Y79.741
G00 X175.970 Y79.688
G00 X175.947 Y79.598
G00 X175.930 Y79.537
G00 X175.912 Y79.478
G00 X175.893 Y79.420
G00 X175.859 Y79.326
G00 X175.838 Y79.274
G00 X175.816 Y79.220
G00 X175.793 Y79.166
G00 X175.752 Y79.078
G00 X175.726 Y79.026
G00 X175.700 Y78.975
G00 X175.678 Y78.937
G00 X175.638 Y78.865
G00 X175.606 Y78.812
G00 X175.569 Y78.754
G00 X174.165 Y76.592
G00 X174.124 Y76.531
G00 X174.091 Y76.486
G00 X174.067 Y76.454
G00 X174.021 Y76.394
G00 X173.980 Y76.343
G00 X173.944 Y76.300
G00 X173.904 Y76.255
G00 X173.866 Y76.215
G00 X173.802 Y76.147
G00 X173.762 Y76.107
G00 X173.719 Y76.067
G00 X173.676 Y76.027
G00 X173.602 Y75.962
G00 X173.556 Y75.924
G00 X173.508 Y75.886
G00 X173.459 Y75.850
G00 X173.377 Y75.790
G00 X173.327 Y75.757
G00 X173.278 Y75.724
G00 X173.229 Y75.694
G00 X173.145 Y75.645
G00 X173.088 Y75.613
G00 X173.021 Y75.578
G00 X172.946 Y75.541
G00 X170.548 Y74.413
G00 X170.483 Y74.385
G00 X170.429 Y74.362
G00 X170.371 Y74.340
G00 X170.275 Y74.306
G00 X170.215 Y74.285
G00 X170.158 Y74.268
G00 X170.103 Y74.253
G00 X170.012 Y74.229
G00 X169.960 Y74.217
G00 X169.905 Y74.205
G00 X169.854 Y74.196
G00 X169.768 Y74.181
G00 X169.705 Y74.172
G00 X169.644 Y74.164
G00 X166.736 Y73.837
G00 X166.669 Y73.832
G00 X166.613 Y73.828
G00 X166.563 Y73.826
G00 X166.480 Y73.824
G00 X166.416 Y73.823
G00 X166.339 Y73.825
G00 X160.754 Y74.021
G00 X138.300 Y74.021
G00 X132.964 Y73.795
G00 X132.890 Y73.795
G00 X132.836 Y73.795
G00 X132.783 Y73.796
G00 X132.696 Y73.800
G00 X132.636 Y73.804
G00 X132.571 Y73.810
G00 X132.517 Y73.817
G00 X127.257 Y74.465
G00 X127.185 Y74.477
G00 X127.126 Y74.487
G00 X127.067 Y74.498
G00 X126.969 Y74.520
G00 X126.911 Y74.534
G00 X126.852 Y74.550
G00 X126.796 Y74.567
G00 X126.703 Y74.596
G00 X126.648 Y74.616
G00 X126.593 Y74.636
G00 X126.537 Y74.658
G00 X126.443 Y74.698
G00 X126.386 Y74.724
G00 X126.334 Y74.749
G00 X126.282 Y74.775
G00 X126.199 Y74.820
G00 X126.154 Y74.846
G00 X126.090 Y74.884
G00 X126.024 Y74.925
G00 X124.213 Y76.108
G00 X124.153 Y76.150
G00 X124.105 Y76.185
G00 X124.056 Y76.222
G00 X123.977 Y76.285
G00 X123.930 Y76.324
G00 X123.887 Y76.363
G00 X123.843 Y76.402
G00 X123.772 Y76.470
G00 X123.731 Y76.512
G00 X123.689 Y76.557
G00 X123.651 Y76.599
G00 X123.588 Y76.671
G00 X123.549 Y76.718
G00 X123.514 Y76.763
G00 X123.490 Y76.795
G00 X123.445 Y76.855
G00 X123.406 Y76.912
G00 X123.365 Y76.973
G00 X123.311 Y77.060
G00 X123.266 Y77.137
G00 X122.345 Y78.791
G00 X122.309 Y78.860
G00 X122.283 Y78.912
G00 X122.259 Y78.963
G00 X122.221 Y79.050
G00 X122.198 Y79.104
G00 X122.176 Y79.162
G00 X122.157 Y79.216
G00 X122.126 Y79.308
G00 X122.108 Y79.367
G00 X122.091 Y79.425
G00 X122.076 Y79.485
G00 X122.052 Y79.584
G00 X122.039 Y79.648
G00 X122.024 Y79.735
G00 X122.013 Y79.809
G00 X122.005 Y79.871
G00 X121.997 Y79.943
G00 X121.630 Y84.002
G00 X121.625 Y84.084
G00 X121.622 Y84.160
G00 X121.621 Y84.227
G00 X121.621 Y101.360
G00 X121.622 Y107.327
G00 X121.625 Y107.402
G00 X121.628 Y107.457
G00 X121.631 Y107.515
G00 X121.640 Y107.609
G00 X121.646 Y107.661
G00 X121.654 Y107.723
G00 X121.665 Y107.790
G00 X121.851 Y108.871
G00 X121.864 Y108.938
G00 X121.877 Y108.999
G00 X121.892 Y109.058
G00 X121.918 Y109.156
G00 X121.936 Y109.215
G00 X121.953 Y109.269
G00 X121.972 Y109.325
G00 X122.006 Y109.415
G00 X122.027 Y109.467
G00 X122.050 Y109.522
G00 X122.076 Y109.580
G00 X122.121 Y109.673
G00 X122.147 Y109.724
G00 X122.174 Y109.774
G00 X122.203 Y109.825
G00 X122.254 Y109.910
G00 X122.288 Y109.965
G00 X122.323 Y110.015
G00 X122.356 Y110.063
G00 X122.413 Y110.140
G00 X122.446 Y110.183
G00 X122.482 Y110.228
G00 X122.520 Y110.273
G00 X122.587 Y110.348
G00 X122.630 Y110.396
G00 X122.672 Y110.439
G00 X122.711 Y110.477
G00 X122.778 Y110.540
G00 X122.822 Y110.580
G00 X122.865 Y110.617
G00 X122.897 Y110.643
G00 X122.958 Y110.692
G00 X122.995 Y110.721
G00 X123.019 Y110.738
G00 X123.073 Y110.776
G00 X123.152 Y110.830
G00 X123.229 Y110.880
G00 X124.049 Y111.383
G00 X124.111 Y111.420
G00 X124.165 Y111.449
G00 X124.221 Y111.478
G00 X124.313 Y111.524
G00 X124.369 Y111.550
G00 X124.424 Y111.574
G00 X124.480 Y111.596
G00 X124.573 Y111.631
G00 X124.629 Y111.651
G00 X124.682 Y111.669
G00 X124.738 Y111.685
G00 X124.830 Y111.711
G00 X124.882 Y111.724
G00 X124.939 Y111.737
G00 X125.001 Y111.750
G00 X125.104 Y111.769
G00 X125.167 Y111.779
G00 X125.224 Y111.787
G00 X125.283 Y111.793
G00 X125.380 Y111.801
G00 X125.432 Y111.804
G00 X125.491 Y111.807
G00 X125.550 Y111.808
G00 X125.649 Y111.808
G00 X125.708 Y111.806
G00 X125.763 Y111.803
G00 X125.825 Y111.799
G00 X125.926 Y111.790
G00 X125.985 Y111.782
G00 X126.044 Y111.774
G00 X126.103 Y111.764
G00 X126.202 Y111.745
G00 X126.258 Y111.733
G00 X126.314 Y111.719
G00 X126.370 Y111.705
G00 X126.464 Y111.678
G00 X126.524 Y111.659
G00 X126.582 Y111.640
G00 X126.634 Y111.621
G00 X126.722 Y111.587
G00 X126.774 Y111.565
G00 X126.829 Y111.541
G00 X126.884 Y111.515
G00 X126.976 Y111.469
G00 X127.034 Y111.439
G00 X127.086 Y111.409
G00 X127.138 Y111.378
G00 X127.224 Y111.324
G00 X127.280 Y111.287
G00 X127.349 Y111.238
G00 X127.420 Y111.186
G00 X129.413 Y109.651
G00 X129.471 Y109.604
G00 X129.516 Y109.565
G00 X129.561 Y109.524
G00 X129.635 Y109.455
G00 X129.665 Y109.426
G00 X129.685 Y109.406
G00 X129.748 Y109.340
G00 X129.802 Y109.280
G00 X131.432 Y107.419
G00 X137.025 Y101.816
G00 X139.323 Y99.514
G00 X141.323 Y99.237
G00 X141.400 Y99.237
G00 X140.323 Y100.309
G00 X138.478 Y102.020
G00 X138.439 Y102.058
G00 X138.380 Y102.117
G00 X135.300 Y105.330
G00 X133.618 Y107.012
G00 X131.652 Y108.740
G00 X131.629 Y108.762
G00 X131.551 Y108.835
G00 X131.502 Y108.885
G00 X131.470 Y108.918
G00 X131.402 Y108.992
G00 X129.641 Y110.990
G00 X120.739 Y119.893
G00 X120.737 Y91.503
G00 X120.502 Y83.654
G00 X120.814 Y80.168
G00 X121.772 Y77.434
G00 X123.874 Y75.010
G00 X126.506 Y73.780
G00 X129.948 Y73.297
G00 X134.070 Y73.297
G00 X164.242 Y73.299
G00 X171.088 Y73.664
G00 X173.428 Y74.529
G00 X175.464 Y76.340
G00 X176.627 Y78.558
G00 X177.145 Y81.218
G00 X177.181 Y87.911
G00 X177.181 Y116.125
G00 X177.236 Y120.858
G00 X176.433 Y125.044
G00 X176.069 Y125.772
G00 X175.209 Y126.586
G00 X175.156 Y126.639
G00 X175.113 Y126.684
G00 X175.072 Y126.728
G00 X175.006 Y126.805
G00 X174.969 Y126.849
G00 X174.934 Y126.892
G00 X174.901 Y126.936
G00 X174.848 Y127.009
G00 X174.816 Y127.053
G00 X174.785 Y127.101
G00 X174.752 Y127.152
G00 X174.340 Y127.813
G00 X173.800 Y128.209
G00 X172.057 Y129.179
G00 X170.262 Y129.597
G00 X165.406 Y129.741
G00 X130.831 Y129.741
G00 X133.073 Y127.705
G00 X133.110 Y127.670
G00 X133.157 Y127.623
G00 X148.986 Y111.665
G00 X151.522 Y109.170
G00 X151.529 Y109.307
G00 X151.383 Y110.629
G00 X149.803 Y112.399
G00 X144.908 Y117.458
G00 X140.643 Y121.639
G00 X139.906 Y122.370
G00 X139.854 Y122.425
G00 X139.814 Y122.469
G00 X139.777 Y122.511
G00 X139.717 Y122.583
G00 X139.681 Y122.628
G00 X139.644 Y122.677
G00 X139.608 Y122.727
G00 X139.550 Y122.811
G00 X139.516 Y122.862
G00 X139.486 Y122.911
G00 X139.456 Y122.962
G00 X139.408 Y123.047
G00 X139.381 Y123.099
G00 X139.356 Y123.148
G00 X139.337 Y123.188
G00 X139.306 Y123.255
G00 X139.280 Y123.315
G00 X139.250 Y123.390
G00 X139.215 Y123.488
G00 X139.184 Y123.581
G00 X138.904 Y124.485
G00 X138.885 Y124.553
G00 X138.870 Y124.612
G00 X138.856 Y124.670
G00 X138.835 Y124.768
G00 X138.824 Y124.830
G00 X138.814 Y124.889
G00 X138.807 Y124.948
G00 X138.796 Y125.046
G00 X138.790 Y125.105
G00 X138.787 Y125.160
G00 X138.784 Y125.217
G00 X138.782 Y125.311
G00 X138.782 Y125.369
G00 X138.783 Y125.430
G00 X138.786 Y125.493
G00 X138.793 Y125.598
G00 X138.799 Y125.657
G00 X138.806 Y125.713
G00 X138.814 Y125.771
G00 X138.829 Y125.867
G00 X139.673 Y125.711
G00 X139.680 Y125.749
G00 X139.688 Y125.787
G00 X139.698 Y125.827
G00 X139.717 Y125.906
G00 X139.728 Y125.943
G00 X139.740 Y125.981
G00 X139.752 Y126.016
G00 X139.777 Y126.088
G00 X139.791 Y126.124
G00 X139.806 Y126.161
G00 X139.822 Y126.197
G00 X139.856 Y126.271
G00 X139.874 Y126.308
G00 X139.893 Y126.343
G00 X139.913 Y126.379
G00 X139.953 Y126.448
G00 X139.973 Y126.481
G00 X139.995 Y126.514
G00 X140.015 Y126.545
G00 X140.060 Y126.608
G00 X140.084 Y126.639
G00 X140.108 Y126.670
G00 X140.133 Y126.701
G00 X140.184 Y126.760
G00 X140.210 Y126.788
G00 X140.237 Y126.817
G00 X140.264 Y126.844
G00 X140.320 Y126.899
G00 X140.350 Y126.926
G00 X140.379 Y126.952
G00 X140.400 Y126.971
G00 X140.443 Y127.006
G00 X140.481 Y127.035
G00 X140.523 Y127.066
G00 X140.583 Y127.108
G00 X140.644 Y127.149
G00 X141.431 Y127.641
G00 X141.479 Y127.670
G00 X141.514 Y127.689
G00 X141.549 Y127.708
G00 X141.621 Y127.745
G00 X141.658 Y127.763
G00 X141.695 Y127.779
G00 X141.731 Y127.794
G00 X141.804 Y127.823
G00 X141.841 Y127.836
G00 X141.878 Y127.849
G00 X141.916 Y127.861
G00 X141.991 Y127.883
G00 X142.029 Y127.893
G00 X142.068 Y127.902
G00 X142.105 Y127.910
G00 X142.180 Y127.925
G00 X142.218 Y127.931
G00 X142.257 Y127.937
G00 X142.292 Y127.942
G00 X142.359 Y127.949
G00 X142.396 Y127.952
G00 X142.458 Y127.956
G00 X143.462 Y128.000
G00 X143.516 Y128.001
G00 X164.936 Y128.001
G00 X168.370 Y128.056
G00 X168.432 Y128.056
G00 X168.472 Y128.054
G00 X168.510 Y128.052
G00 X168.585 Y128.046
G00 X168.622 Y128.043
G00 X168.661 Y128.038
G00 X168.700 Y128.033
G00 X168.778 Y128.019
G00 X168.817 Y128.012
G00 X168.856 Y128.003
G00 X168.889 Y127.996
G00 X168.954 Y127.979
G00 X168.986 Y127.970
G00 X169.028 Y127.957
G00 X169.068 Y127.944
G00 X172.210 Y126.886
G00 X172.267 Y126.865
G00 X172.304 Y126.851
G00 X172.340 Y126.836
G00 X172.413 Y126.804
G00 X172.449 Y126.787
G00 X172.485 Y126.769
G00 X172.521 Y126.750
G00 X172.590 Y126.711
G00 X172.623 Y126.691
G00 X172.656 Y126.670
G00 X172.689 Y126.649
G00 X172.754 Y126.604
G00 X172.786 Y126.581
G00 X172.817 Y126.557
G00 X172.846 Y126.535
G00 X172.904 Y126.486
G00 X172.934 Y126.461
G00 X172.964 Y126.434
G00 X172.994 Y126.405
G00 X173.051 Y126.348
G00 X173.078 Y126.320
G00 X173.122 Y126.271
G00 X173.159 Y126.229
G00 X173.189 Y126.192
G00 X173.217 Y126.153
G00 X173.259 Y126.097
G00 X173.297 Y126.041
G00 X174.715 Y123.893
G00 X174.742 Y123.850
G00 X174.776 Y123.793
G00 X174.804 Y123.744
G00 X174.824 Y123.704
G00 X174.843 Y123.667
G00 X174.859 Y123.631
G00 X174.874 Y123.597
G00 X174.903 Y123.529
G00 X174.917 Y123.494
G00 X174.940 Y123.432
G00 X174.958 Y123.379
G00 X174.972 Y123.332
G00 X174.987 Y123.278
G00 X175.005 Y123.203
G00 X175.021 Y123.129
G00 X175.514 Y120.532
G00 X175.524 Y120.469
G00 X175.533 Y120.403
G00 X175.539 Y120.348
G00 X175.543 Y120.305
G00 X175.545 Y120.262
G00 X175.547 Y120.212
G00 X175.548 Y120.184
G00 X175.548 Y120.109
G00 X175.440 Y114.784
G00 X175.440 Y88.757
G00 X175.630 Y83.203
G00 X175.630 Y83.143
G00 X175.629 Y83.103
G00 X175.628 Y83.064
G00 X175.623 Y82.987
G00 X175.621 Y82.949
G00 X175.613 Y82.884
G00 X175.605 Y82.818
G00 X175.167 Y80.037
G00 X175.156 Y79.975
G00 X175.148 Y79.936
G00 X175.139 Y79.899
G00 X175.120 Y79.824
G00 X175.110 Y79.786
G00 X175.098 Y79.748
G00 X175.085 Y79.708
G00 X175.058 Y79.633
G00 X175.044 Y79.597
G00 X175.029 Y79.561
G00 X175.014 Y79.526
G00 X174.982 Y79.455
G00 X174.964 Y79.420
G00 X174.946 Y79.385
G00 X174.932 Y79.358
G00 X174.901 Y79.303
G00 X174.880 Y79.269
G00 X174.850 Y79.221
G00 X173.457 Y77.076
G00 X173.425 Y77.029
G00 X173.402 Y76.997
G00 X173.385 Y76.974
G00 X173.352 Y76.930
G00 X173.325 Y76.897
G00 X173.297 Y76.864
G00 X173.272 Y76.834
G00 X173.246 Y76.806
G00 X173.194 Y76.752
G00 X173.168 Y76.726
G00 X173.139 Y76.698
G00 X173.110 Y76.671
G00 X173.051 Y76.620
G00 X173.021 Y76.594
G00 X172.990 Y76.569
G00 X172.957 Y76.545
G00 X172.891 Y76.497
G00 X172.858 Y76.474
G00 X172.825 Y76.453
G00 X172.792 Y76.432
G00 X172.725 Y76.393
G00 X172.690 Y76.373
G00 X172.637 Y76.345
G00 X172.581 Y76.317
G00 X170.203 Y75.198
G00 X170.153 Y75.176
G00 X170.116 Y75.161
G00 X170.079 Y75.146
G00 X170.001 Y75.118
G00 X169.961 Y75.105
G00 X169.924 Y75.093
G00 X169.887 Y75.082
G00 X169.814 Y75.063
G00 X169.779 Y75.055
G00 X169.740 Y75.047
G00 X169.707 Y75.040
G00 X169.638 Y75.028
G00 X169.599 Y75.022
G00 X169.548 Y75.016
G00 X166.664 Y74.692
G00 X166.610 Y74.687
G00 X166.571 Y74.685
G00 X166.538 Y74.683
G00 X166.472 Y74.681
G00 X166.432 Y74.680
G00 X166.369 Y74.682
G00 X160.769 Y74.879
G00 X138.280 Y74.879
G00 X132.954 Y74.653
G00 X132.894 Y74.652
G00 X132.855 Y74.652
G00 X132.821 Y74.653
G00 X132.751 Y74.656
G00 X132.714 Y74.658
G00 X132.666 Y74.663
G00 X132.621 Y74.668
G00 X127.384 Y75.314
G00 X127.327 Y75.322
G00 X127.289 Y75.329
G00 X127.249 Y75.336
G00 X127.170 Y75.353
G00 X127.132 Y75.362
G00 X127.093 Y75.373
G00 X127.055 Y75.384
G00 X126.980 Y75.408
G00 X126.943 Y75.420
G00 X126.906 Y75.434
G00 X126.869 Y75.449
G00 X126.794 Y75.480
G00 X126.756 Y75.497
G00 X126.721 Y75.514
G00 X126.687 Y75.531
G00 X126.622 Y75.566
G00 X126.591 Y75.583
G00 X126.544 Y75.612
G00 X126.493 Y75.643
G00 X124.700 Y76.815
G00 X124.653 Y76.847
G00 X124.621 Y76.870
G00 X124.588 Y76.894
G00 X124.525 Y76.944
G00 X124.494 Y76.971
G00 X124.464 Y76.996
G00 X124.435 Y77.023
G00 X124.379 Y77.077
G00 X124.351 Y77.104
G00 X124.324 Y77.133
G00 X124.297 Y77.162
G00 X124.246 Y77.221
G00 X124.221 Y77.251
G00 X124.196 Y77.282
G00 X124.179 Y77.305
G00 X124.146 Y77.350
G00 X124.121 Y77.384
G00 X124.091 Y77.430
G00 X124.051 Y77.493
G00 X124.015 Y77.555
G00 X123.105 Y79.188
G00 X123.076 Y79.242
G00 X123.059 Y79.277
G00 X123.043 Y79.311
G00 X123.012 Y79.381
G00 X122.997 Y79.416
G00 X122.983 Y79.453
G00 X122.969 Y79.491
G00 X122.943 Y79.566
G00 X122.932 Y79.604
G00 X122.920 Y79.642
G00 X122.910 Y79.682
G00 X122.891 Y79.761
G00 X122.883 Y79.801
G00 X122.872 Y79.866
G00 X122.862 Y79.922
G00 X122.858 Y79.960
G00 X122.851 Y80.021
G00 X122.486 Y84.055
G00 X122.482 Y84.117
G00 X122.480 Y84.174
G00 X122.479 Y84.227
G00 X122.479 Y101.360
G00 X122.480 Y107.304
G00 X122.481 Y107.363
G00 X122.483 Y107.402
G00 X122.486 Y107.439
G00 X122.492 Y107.512
G00 X122.496 Y107.549
G00 X122.502 Y107.594
G00 X122.510 Y107.645
G00 X122.691 Y108.704
G00 X122.702 Y108.758
G00 X122.710 Y108.796
G00 X122.720 Y108.836
G00 X122.741 Y108.916
G00 X122.753 Y108.955
G00 X122.765 Y108.992
G00 X122.777 Y109.028
G00 X122.803 Y109.100
G00 X122.817 Y109.136
G00 X122.833 Y109.172
G00 X122.850 Y109.210
G00 X122.884 Y109.283
G00 X122.903 Y109.318
G00 X122.921 Y109.353
G00 X122.940 Y109.386
G00 X122.981 Y109.455
G00 X123.003 Y109.491
G00 X123.025 Y109.524
G00 X123.048 Y109.556
G00 X123.093 Y109.618
G00 X123.116 Y109.647
G00 X123.140 Y109.678
G00 X123.165 Y109.708
G00 X123.219 Y109.769
G00 X123.247 Y109.799
G00 X123.274 Y109.828
G00 X123.301 Y109.854
G00 X123.355 Y109.906
G00 X123.384 Y109.931
G00 X123.414 Y109.958
G00 X123.436 Y109.976
G00 X123.480 Y110.011
G00 X123.517 Y110.040
G00 X123.560 Y110.071
G00 X123.618 Y110.110
G00 X123.679 Y110.149
G00 X124.481 Y110.643
G00 X124.529 Y110.671
G00 X124.563 Y110.690
G00 X124.601 Y110.710
G00 X124.675 Y110.746
G00 X124.712 Y110.763
G00 X124.748 Y110.780
G00 X124.786 Y110.795
G00 X124.860 Y110.824
G00 X124.898 Y110.836
G00 X124.935 Y110.849
G00 X124.971 Y110.860
G00 X125.043 Y110.880
G00 X125.079 Y110.889
G00 X125.118 Y110.899
G00 X125.158 Y110.907
G00 X125.240 Y110.922
G00 X125.282 Y110.929
G00 X125.321 Y110.934
G00 X125.359 Y110.939
G00 X125.435 Y110.945
G00 X125.472 Y110.948
G00 X125.511 Y110.950
G00 X125.550 Y110.951
G00 X125.629 Y110.951
G00 X125.668 Y110.950
G00 X125.708 Y110.948
G00 X125.747 Y110.945
G00 X125.826 Y110.938
G00 X125.866 Y110.933
G00 X125.905 Y110.928
G00 X125.945 Y110.921
G00 X126.023 Y110.907
G00 X126.061 Y110.899
G00 X126.100 Y110.889
G00 X126.137 Y110.880
G00 X126.212 Y110.858
G00 X126.251 Y110.847
G00 X126.289 Y110.834
G00 X126.325 Y110.821
G00 X126.396 Y110.793
G00 X126.431 Y110.779
G00 X126.467 Y110.763
G00 X126.504 Y110.746
G00 X126.578 Y110.709
G00 X126.616 Y110.689
G00 X126.650 Y110.671
G00 X126.685 Y110.650
G00 X126.754 Y110.607
G00 X126.789 Y110.584
G00 X126.843 Y110.546
G00 X126.897 Y110.507
G00 X128.870 Y108.988
G00 X128.916 Y108.950
G00 X128.946 Y108.924
G00 X128.976 Y108.897
G00 X129.036 Y108.841
G00 X129.066 Y108.812
G00 X129.114 Y108.762
G00 X129.156 Y108.715
G00 X130.804 Y106.834
G00 X136.418 Y101.211
G00 X138.919 Y98.704
G00 X141.264 Y98.379
G00 X143.477 Y98.379
G00 X140.915 Y100.930
G00 X139.072 Y102.638
G00 X139.048 Y102.660
G00 X138.999 Y102.710
G00 X135.911 Y105.932
G00 X134.204 Y107.640
G00 X132.218 Y109.384
G00 X132.157 Y109.442
G00 X132.119 Y109.480
G00 X132.099 Y109.501
G00 X132.045 Y109.559
G00 X130.265 Y111.578
G00 X121.325 Y120.520
G00 X121.295 Y120.551
G00 X119.881 Y122.063
G00 X119.880 Y91.528
G00 X119.643 Y83.627
G00 X119.969 Y79.986
G00 X121.017 Y76.997
G00 X123.346 Y74.310
G00 X126.259 Y72.949
G00 X129.888 Y72.440
G00 X134.070 Y72.439
G00 X164.267 Y72.441
G00 X171.263 Y72.814
G00 X173.878 Y73.781
G00 X176.150 Y75.803
G00 X177.445 Y78.271
G00 X178.002 Y81.133
G00 X178.038 Y87.911
G00 X178.038 Y116.115
G00 X178.095 Y120.935
G00 X177.253 Y125.322
G00 X176.768 Y126.290
G00 X175.813 Y127.195
G00 X175.772 Y127.235
G00 X175.745 Y127.263
G00 X175.717 Y127.294
G00 X175.663 Y127.355
G00 X175.638 Y127.385
G00 X175.614 Y127.416
G00 X175.592 Y127.444
G00 X175.550 Y127.501
G00 X175.529 Y127.531
G00 X175.505 Y127.566
G00 X175.480 Y127.605
G00 X174.981 Y128.407
G00 X174.263 Y128.932
G00 X172.369 Y129.987
G00 X170.373 Y130.452
G00 X165.419 Y130.599
G00 X128.693 Y130.599
G00 X128.924 Y130.315
G00 X132.487 Y127.078
G00 X132.510 Y127.057
G00 X132.549 Y127.019
G00 X148.384 Y111.054
G00 X152.278 Y107.222
G00 X152.389 Y109.331
G00 X152.205 Y110.996
G00 X150.431 Y112.983
G00 X145.519 Y118.061
G00 X141.247 Y122.248
G00 X140.526 Y122.962
G00 X140.485 Y123.005
G00 X140.458 Y123.034
G00 X140.434 Y123.063
G00 X140.385 Y123.121
G00 X140.361 Y123.151
G00 X140.337 Y123.182
G00 X140.313 Y123.215
G00 X140.266 Y123.283
G00 X140.243 Y123.317
G00 X140.222 Y123.350
G00 X140.203 Y123.383
G00 X140.165 Y123.452
G00 X140.146 Y123.486
G00 X140.128 Y123.521
G00 X140.115 Y123.548
G00 X140.092 Y123.598
G00 X140.076 Y123.634
G00 X140.055 Y123.687
G00 X140.027 Y123.762
G00 X140.003 Y123.834
G00 X139.730 Y124.715
G00 X139.714 Y124.771
G00 X139.704 Y124.809
G00 X139.695 Y124.848
G00 X139.678 Y124.928
G00 X139.670 Y124.968
G00 X139.664 Y125.007
G00 X139.658 Y125.046
G00 X139.649 Y125.124
G00 X139.646 Y125.164
G00 X139.643 Y125.203
G00 X139.641 Y125.240
G00 X139.639 Y125.315
G00 X139.639 Y125.353
G00 X139.640 Y125.393
G00 X139.642 Y125.435
G00 X139.647 Y125.518
G00 X139.651 Y125.558
G00 X139.656 Y125.597
G00 X139.661 Y125.635
G00 X139.673 Y125.711
G00 X140.520 Y125.574
G00 X140.528 Y125.613
G00 X140.548 Y125.691
G00 X140.559 Y125.729
G00 X140.585 Y125.801
G00 X140.600 Y125.837
G00 X140.634 Y125.911
G00 X140.652 Y125.946
G00 X140.693 Y126.015
G00 X140.714 Y126.047
G00 X140.759 Y126.110
G00 X140.783 Y126.141
G00 X140.834 Y126.200
G00 X140.861 Y126.229
G00 X140.917 Y126.283
G00 X140.947 Y126.309
G00 X140.990 Y126.345
G00 X141.019 Y126.366
G00 X141.059 Y126.395
G00 X141.100 Y126.422
G00 X141.869 Y126.904
G00 X141.902 Y126.924
G00 X141.936 Y126.943
G00 X142.009 Y126.980
G00 X142.045 Y126.996
G00 X142.118 Y127.025
G00 X142.155 Y127.038
G00 X142.231 Y127.060
G00 X142.269 Y127.069
G00 X142.344 Y127.083
G00 X142.383 Y127.089
G00 X142.451 Y127.097
G00 X142.495 Y127.099
G00 X143.478 Y127.142
G00 X143.516 Y127.143
G00 X164.950 Y127.143
G00 X168.363 Y127.199
G00 X168.405 Y127.198
G00 X168.444 Y127.197
G00 X168.519 Y127.192
G00 X168.558 Y127.187
G00 X168.636 Y127.174
G00 X168.675 Y127.165
G00 X168.740 Y127.149
G00 X168.767 Y127.141
G00 X168.794 Y127.132
G00 X171.919 Y126.079
G00 X171.956 Y126.066
G00 X171.993 Y126.052
G00 X172.066 Y126.019
G00 X172.101 Y126.002
G00 X172.170 Y125.963
G00 X172.204 Y125.942
G00 X172.268 Y125.898
G00 X172.300 Y125.874
G00 X172.359 Y125.825
G00 X172.387 Y125.799
G00 X172.445 Y125.742
G00 X172.472 Y125.713
G00 X172.508 Y125.670
G00 X172.528 Y125.644
G00 X172.556 Y125.606
G00 X172.582 Y125.569
G00 X173.989 Y123.438
G00 X174.007 Y123.408
G00 X174.028 Y123.374
G00 X174.055 Y123.325
G00 X174.068 Y123.299
G00 X174.085 Y123.263
G00 X174.113 Y123.195
G00 X174.127 Y123.158
G00 X174.145 Y123.105
G00 X174.155 Y123.068
G00 X174.168 Y123.019
G00 X174.179 Y122.969
G00 X174.668 Y120.392
G00 X174.675 Y120.351
G00 X174.681 Y120.312
G00 X174.687 Y120.256
G00 X174.688 Y120.227
G00 X174.690 Y120.177
G00 X174.690 Y120.126
G00 X174.583 Y114.792
G00 X174.583 Y88.739
G00 X174.772 Y83.195
G00 X174.772 Y83.155
G00 X174.772 Y83.115
G00 X174.768 Y83.038
G00 X174.763 Y82.996
G00 X174.757 Y82.951
G00 X174.323 Y80.188
G00 X174.316 Y80.148
G00 X174.308 Y80.109
G00 X174.289 Y80.034
G00 X174.278 Y79.997
G00 X174.251 Y79.921
G00 X174.236 Y79.885
G00 X174.203 Y79.815
G00 X174.185 Y79.779
G00 X174.154 Y79.724
G00 X174.131 Y79.688
G00 X172.747 Y77.557
G00 X172.726 Y77.526
G00 X172.703 Y77.494
G00 X172.670 Y77.450
G00 X172.651 Y77.428
G00 X172.626 Y77.398
G00 X172.574 Y77.344
G00 X172.545 Y77.316
G00 X172.486 Y77.264
G00 X172.455 Y77.240
G00 X172.389 Y77.192
G00 X172.356 Y77.171
G00 X172.288 Y77.130
G00 X172.252 Y77.112
G00 X172.216 Y77.093
G00 X169.856 Y75.982
G00 X169.822 Y75.967
G00 X169.785 Y75.952
G00 X169.708 Y75.924
G00 X169.671 Y75.912
G00 X169.598 Y75.893
G00 X169.560 Y75.885
G00 X169.491 Y75.873
G00 X169.452 Y75.868
G00 X166.587 Y75.546
G00 X166.551 Y75.543
G00 X166.512 Y75.540
G00 X166.446 Y75.538
G00 X166.399 Y75.538
G00 X160.783 Y75.736
G00 X138.261 Y75.736
G00 X132.938 Y75.510
G00 X132.898 Y75.509
G00 X132.859 Y75.509
G00 X132.788 Y75.513
G00 X132.757 Y75.515
G00 X132.726 Y75.519
G00 X127.507 Y76.162
G00 X127.469 Y76.168
G00 X127.431 Y76.174
G00 X127.352 Y76.191
G00 X127.314 Y76.202
G00 X127.239 Y76.225
G00 X127.202 Y76.239
G00 X127.127 Y76.270
G00 X127.091 Y76.287
G00 X127.027 Y76.322
G00 X126.994 Y76.341
G00 X126.961 Y76.362
G00 X125.184 Y77.522
G00 X125.153 Y77.543
G00 X125.121 Y77.566
G00 X125.057 Y77.617
G00 X125.028 Y77.643
G00 X124.971 Y77.697
G00 X124.944 Y77.725
G00 X124.892 Y77.785
G00 X124.868 Y77.815
G00 X124.835 Y77.860
G00 X124.815 Y77.889
G00 X124.789 Y77.931
G00 X124.764 Y77.973
G00 X123.863 Y79.588
G00 X123.844 Y79.624
G00 X123.827 Y79.659
G00 X123.795 Y79.729
G00 X123.782 Y79.765
G00 X123.756 Y79.841
G00 X123.745 Y79.879
G00 X123.726 Y79.958
G00 X123.719 Y79.997
G00 X123.710 Y80.053
G00 X123.705 Y80.098
G00 X123.341 Y84.112
G00 X123.339 Y84.153
G00 X123.337 Y84.192
G00 X123.336 Y84.227
G00 X123.336 Y101.360
G00 X123.337 Y107.284
G00 X123.338 Y107.323
G00 X123.340 Y107.363
G00 X123.346 Y107.436
G00 X123.350 Y107.469
G00 X123.355 Y107.501
G00 X123.533 Y108.540
G00 X123.540 Y108.576
G00 X123.549 Y108.615
G00 X123.570 Y108.695
G00 X123.582 Y108.732
G00 X123.608 Y108.804
G00 X123.623 Y108.840
G00 X123.658 Y108.914
G00 X123.677 Y108.948
G00 X123.718 Y109.017
G00 X123.740 Y109.050
G00 X123.785 Y109.111
G00 X123.809 Y109.142
G00 X123.863 Y109.203
G00 X123.890 Y109.232
G00 X123.945 Y109.283
G00 X123.975 Y109.309
G00 X124.019 Y109.344
G00 X124.048 Y109.366
G00 X124.088 Y109.393
G00 X124.127 Y109.419
G00 X124.916 Y109.903
G00 X124.947 Y109.922
G00 X124.982 Y109.941
G00 X125.056 Y109.978
G00 X125.092 Y109.994
G00 X125.167 Y110.022
G00 X125.204 Y110.035
G00 X125.276 Y110.055
G00 X125.315 Y110.064
G00 X125.397 Y110.079
G00 X125.436 Y110.085
G00 X125.511 Y110.091
G00 X125.550 Y110.093
G00 X125.629 Y110.093
G00 X125.668 Y110.091
G00 X125.747 Y110.084
G00 X125.786 Y110.079
G00 X125.865 Y110.064
G00 X125.903 Y110.055
G00 X125.979 Y110.033
G00 X126.016 Y110.021
G00 X126.087 Y109.993
G00 X126.124 Y109.977
G00 X126.198 Y109.941
G00 X126.232 Y109.922
G00 X126.302 Y109.879
G00 X126.338 Y109.854
G00 X126.374 Y109.827
G00 X128.328 Y108.322
G00 X128.361 Y108.296
G00 X128.391 Y108.271
G00 X128.451 Y108.215
G00 X128.482 Y108.183
G00 X128.511 Y108.150
G00 X130.177 Y106.249
G00 X135.811 Y100.605
G00 X138.516 Y97.894
G00 X141.204 Y97.522
G00 X145.602 Y97.522
G00 X144.483 Y98.587
G00 X141.507 Y101.550
G00 X139.655 Y103.267
G00 X139.618 Y103.304
G00 X136.521 Y106.534
G00 X134.790 Y108.266
G00 X132.805 Y110.010
G00 X132.764 Y110.048
G00 X132.725 Y110.087
G00 X132.688 Y110.126
G00 X130.889 Y112.167
G00 X121.941 Y121.115
G00 X121.921 Y121.136
G00 X119.668 Y123.547
G00 X119.023 Y123.966
G00 X119.023 Y91.554
G00 X118.784 Y83.601
G00 X119.125 Y79.803
G00 X120.262 Y76.559
G00 X122.817 Y73.610
G00 X126.012 Y72.118
G00 X129.828 Y71.582
G00 X134.069 Y71.582
G00 X164.292 Y71.584
G00 X171.438 Y71.965
G00 X174.326 Y73.033
G00 X176.836 Y75.266
G00 X178.263 Y77.983
G00 X178.859 Y81.048
G00 X178.895 Y87.911
G00 X178.895 Y116.105
G00 X178.953 Y121.011
G00 X178.073 Y125.600
G00 X177.467 Y126.809
G00 X176.415 Y127.805
G00 X176.389 Y127.831
G00 X176.361 Y127.860
G00 X176.308 Y127.920
G00 X176.283 Y127.951
G00 X176.241 Y128.009
G00 X176.224 Y128.034
G00 X176.208 Y128.059
G00 X175.621 Y129.001
G00 X174.726 Y129.655
G00 X172.681 Y130.795
G00 X170.485 Y131.306
G00 X165.432 Y131.456
G00 X128.653 Y131.456
G00 X126.936 Y131.392
G00 X128.300 Y129.723
G00 X131.911 Y126.444
G00 X131.940 Y126.416
G00 X147.783 Y110.443
G00 X153.225 Y105.088
G00 X153.120 Y106.721
G00 X153.118 Y106.770
G00 X153.118 Y106.820
G00 X153.119 Y106.871
G00 X153.248 Y109.356
G00 X153.028 Y111.363
G00 X151.058 Y113.568
G00 X146.129 Y118.663
G00 X141.850 Y122.857
G00 X141.145 Y123.557
G00 X141.117 Y123.586
G00 X141.090 Y123.615
G00 X141.041 Y123.672
G00 X141.017 Y123.704
G00 X140.970 Y123.771
G00 X140.950 Y123.805
G00 X140.911 Y123.872
G00 X140.894 Y123.908
G00 X140.870 Y123.958
G00 X140.857 Y123.991
G00 X140.839 Y124.039
G00 X140.821 Y124.089
G00 X140.554 Y124.951
G00 X140.544 Y124.988
G00 X140.533 Y125.026
G00 X140.517 Y125.106
G00 X140.510 Y125.144
G00 X140.501 Y125.223
G00 X140.499 Y125.262
G00 X140.496 Y125.337
G00 X140.498 Y125.377
G00 X140.503 Y125.460
G00 X140.508 Y125.499
G00 X140.520 Y125.574
G00 X141.359 Y125.400
G00 X141.367 Y125.439
G00 X141.379 Y125.476
G00 X141.394 Y125.513
G00 X141.412 Y125.548
G00 X141.434 Y125.581
G00 X141.458 Y125.612
G00 X141.485 Y125.641
G00 X141.515 Y125.667
G00 X141.555 Y125.696
G00 X142.324 Y126.178
G00 X142.359 Y126.197
G00 X142.395 Y126.213
G00 X142.432 Y126.226
G00 X142.470 Y126.235
G00 X142.509 Y126.241
G00 X142.533 Y126.242
G00 X143.516 Y126.286
G00 X164.964 Y126.286
G00 X168.377 Y126.342
G00 X168.416 Y126.340
G00 X168.456 Y126.336
G00 X168.494 Y126.327
G00 X168.521 Y126.319
G00 X171.645 Y125.267
G00 X171.682 Y125.253
G00 X171.717 Y125.235
G00 X171.751 Y125.214
G00 X171.782 Y125.190
G00 X171.812 Y125.164
G00 X171.838 Y125.135
G00 X171.866 Y125.097
G00 X173.273 Y122.965
G00 X173.293 Y122.931
G00 X173.310 Y122.896
G00 X173.324 Y122.859
G00 X173.337 Y122.809
G00 X173.826 Y120.232
G00 X173.831 Y120.193
G00 X173.834 Y120.143
G00 X173.725 Y114.800
G00 X173.725 Y88.720
G00 X173.915 Y83.166
G00 X173.915 Y83.127
G00 X173.910 Y83.085
G00 X173.476 Y80.322
G00 X173.468 Y80.283
G00 X173.457 Y80.245
G00 X173.442 Y80.209
G00 X173.423 Y80.174
G00 X173.412 Y80.155
G00 X172.028 Y78.024
G00 X172.005 Y77.991
G00 X171.979 Y77.961
G00 X171.950 Y77.934
G00 X171.920 Y77.909
G00 X171.887 Y77.888
G00 X171.851 Y77.869
G00 X169.491 Y76.758
G00 X169.454 Y76.743
G00 X169.417 Y76.731
G00 X169.378 Y76.723
G00 X169.356 Y76.720
G00 X166.492 Y76.398
G00 X166.452 Y76.395
G00 X166.429 Y76.396
G00 X160.798 Y76.594
G00 X138.242 Y76.594
G00 X132.902 Y76.367
G00 X132.863 Y76.367
G00 X132.831 Y76.369
G00 X127.612 Y77.013
G00 X127.573 Y77.020
G00 X127.535 Y77.030
G00 X127.498 Y77.043
G00 X127.463 Y77.061
G00 X127.430 Y77.080
G00 X125.653 Y78.240
G00 X125.621 Y78.263
G00 X125.591 Y78.289
G00 X125.564 Y78.317
G00 X125.539 Y78.349
G00 X125.513 Y78.390
G00 X124.612 Y80.005
G00 X124.594 Y80.041
G00 X124.580 Y80.078
G00 X124.569 Y80.115
G00 X124.562 Y80.155
G00 X124.559 Y80.176
G00 X124.195 Y84.189
G00 X124.194 Y84.227
G00 X124.194 Y101.360
G00 X124.194 Y107.284
G00 X124.196 Y107.323
G00 X124.200 Y107.356
G00 X124.378 Y108.396
G00 X124.387 Y108.434
G00 X124.399 Y108.472
G00 X124.414 Y108.508
G00 X124.432 Y108.543
G00 X124.454 Y108.576
G00 X124.479 Y108.606
G00 X124.506 Y108.635
G00 X124.536 Y108.660
G00 X124.576 Y108.688
G00 X125.365 Y109.173
G00 X125.399 Y109.192
G00 X125.435 Y109.208
G00 X125.473 Y109.220
G00 X125.511 Y109.229
G00 X125.550 Y109.235
G00 X125.590 Y109.236
G00 X125.629 Y109.235
G00 X125.668 Y109.229
G00 X125.706 Y109.220
G00 X125.744 Y109.208
G00 X125.780 Y109.192
G00 X125.814 Y109.173
G00 X125.851 Y109.148
G00 X127.806 Y107.643
G00 X127.836 Y107.617
G00 X127.866 Y107.585
G00 X129.550 Y105.662
G00 X135.204 Y99.999
G00 X138.113 Y97.084
G00 X141.144 Y96.665
G00 X147.149 Y96.665
G00 X146.618 Y97.739
G00 X145.088 Y99.195
G00 X142.099 Y102.170
G00 X140.255 Y103.880
G00 X140.237 Y103.897
G00 X137.128 Y107.140
G00 X135.377 Y108.893
G00 X133.370 Y110.655
G00 X133.332 Y110.693
G00 X131.514 Y112.755
G00 X122.548 Y121.722
G00 X120.224 Y124.208
G00 X118.166 Y125.547
G00 X118.166 Y91.580
G00 X117.925 Y83.574
G00 X118.280 Y79.621
G00 X119.507 Y76.121
G00 X122.289 Y72.910
G00 X125.765 Y71.287
G00 X129.768 Y70.725
G00 X134.069 Y70.724
G00 X164.318 Y70.727
G00 X171.613 Y71.116
G00 X174.776 Y72.285
G00 X177.523 Y74.729
G00 X179.080 Y77.697
G00 X179.716 Y80.964
G00 X179.753 Y87.911
G00 X179.753 Y116.095
G00 X179.812 Y121.089
G00 X178.893 Y125.878
G00 X178.166 Y127.328
G00 X177.005 Y128.427
G00 X176.977 Y128.456
G00 X176.953 Y128.487
G00 X176.936 Y128.512
G00 X176.260 Y129.595
G00 X175.190 Y130.379
G00 X172.993 Y131.602
G00 X170.597 Y132.161
G00 X165.445 Y132.313
G00 X128.636 Y132.313
G00 X125.180 Y132.185
G00 X127.676 Y129.132
G00 X131.315 Y125.827
G00 X131.331 Y125.811
G00 X147.181 Y109.832
G00 X152.619 Y104.481
G00 X153.492 Y103.598
G00 X153.935 Y103.518
G00 X154.097 Y104.883
G00 X153.975 Y106.776
G00 X153.975 Y106.826
G00 X154.108 Y109.381
G00 X153.850 Y111.729
G00 X151.686 Y114.153
G00 X146.739 Y119.266
;Nearing path end, moving to preshutoff position
G00 X143.644 Y122.299
G00 Z0 ;Valve closed
G00 X142.454 Y123.465
G00 X141.748 Y124.166
G00 X141.722 Y124.195
G00 X141.698 Y124.226
G00 X141.677 Y124.259
G00 X141.659 Y124.294
G00 X141.641 Y124.343
G00 X141.373 Y125.205
G00 X141.363 Y125.244
G00 X141.357 Y125.282
G00 X141.354 Y125.322
G00 X141.355 Y125.361
G00 X141.359 Y125.400
G4 P250 ;Pause for 250 milliseconds
;Completed path #4/13 on color #4
;Switching Color to: Light
G4 P1000 ;Pause for 1000 milliseconds
G00 X10.000 Y48.799 ;Help homing
G28 X0 Y0 ;Home All Axis
M84 ;Motors off
M142 ;Bottle change
G4 P20000 ;Pause for 20000 milliseconds
;Starting fill path #5/13, segments: 202, length: 859, color #1
G00 X121.790 Y66.368
G00 Z10 ;Valve open
G4 P197 ;Pause for 197 milliseconds
G00 X120.300 Y67.055
G00 X120.193 Y67.108
G00 X120.074 Y67.172
G00 X119.968 Y67.232
G00 X119.879 Y67.285
G00 X119.804 Y67.332
G00 X119.720 Y67.388
G00 X119.643 Y67.441
G00 X119.527 Y67.524
G00 X119.440 Y67.591
G00 X119.339 Y67.673
G00 X119.246 Y67.751
G00 X116.454 Y70.194
G00 X116.367 Y70.274
G00 X116.296 Y70.344
G00 X116.233 Y70.408
G00 X116.141 Y70.506
G00 X116.063 Y70.592
G00 X116.007 Y70.659
G00 X115.962 Y70.713
G00 X115.881 Y70.816
G00 X115.817 Y70.901
G00 X115.763 Y70.977
G00 X115.687 Y71.090
G00 X115.612 Y71.204
G00 X113.666 Y74.349
G00 X113.605 Y74.454
G00 X113.556 Y74.544
G00 X113.514 Y74.625
G00 X113.454 Y74.749
G00 X113.410 Y74.842
G00 X113.378 Y74.917
G00 X113.351 Y74.983
G00 X113.303 Y75.106
G00 X113.265 Y75.211
G00 X113.226 Y75.330
G00 X113.182 Y75.473
G00 X113.167 Y75.530
G00 X113.167 Y66.368
G00 X121.790 Y66.368
G00 X118.544 Y67.225
G00 X115.869 Y69.566
G00 X115.768 Y69.661
G00 X115.684 Y69.744
G00 X115.610 Y69.819
G00 X115.504 Y69.932
G00 X115.410 Y70.037
G00 X115.343 Y70.115
G00 X115.290 Y70.181
G00 X115.193 Y70.303
G00 X115.119 Y70.403
G00 X115.054 Y70.495
G00 X114.966 Y70.624
G00 X114.883 Y70.753
G00 X114.024 Y72.141
G00 X114.024 Y67.225
G00 X118.544 Y67.225
G00 X116.263 Y68.083
G00 X115.284 Y68.939
G00 X115.167 Y69.049
G00 X115.070 Y69.145
G00 X114.986 Y69.232
G00 X114.882 Y69.342
G00 X114.882 Y68.083
G00 X116.263 Y68.083
G00 X114.024 Y132.215
G00 X114.139 Y132.292
G00 X114.238 Y132.355
G00 X114.329 Y132.410
G00 X114.428 Y132.467
G00 X114.561 Y132.540
G00 X114.679 Y132.601
G00 X114.786 Y132.652
G00 X114.892 Y132.701
G00 X115.046 Y132.767
G00 X115.162 Y132.814
G00 X115.278 Y132.856
G00 X115.376 Y132.890
G00 X115.526 Y132.940
G00 X115.653 Y132.977
G00 X115.766 Y133.008
G00 X115.872 Y133.033
G00 X116.028 Y133.069
G00 X116.139 Y133.091
G00 X116.255 Y133.111
G00 X116.359 Y133.127
G00 X116.521 Y133.149
G00 X116.623 Y133.159
G00 X116.747 Y133.170
G00 X116.872 Y133.178
G00 X117.048 Y133.185
G00 X117.146 Y133.186
G00 X117.244 Y133.186
G00 X117.339 Y133.184
G00 X117.460 Y133.179
G00 X117.460 Y133.218
G00 X117.462 Y133.337
G00 X117.468 Y133.461
G00 X117.475 Y133.576
G00 X117.491 Y133.747
G00 X117.506 Y133.881
G00 X117.522 Y133.995
G00 X117.540 Y134.096
G00 X117.569 Y134.257
G00 X117.591 Y134.358
G00 X117.616 Y134.468
G00 X117.646 Y134.586
G00 X117.689 Y134.741
G00 X117.722 Y134.850
G00 X117.761 Y134.965
G00 X117.797 Y135.067
G00 X117.856 Y135.223
G00 X117.903 Y135.336
G00 X117.954 Y135.453
G00 X117.997 Y135.545
G00 X118.069 Y135.693
G00 X118.118 Y135.787
G00 X118.172 Y135.885
G00 X118.231 Y135.988
G00 X118.314 Y136.126
G00 X118.391 Y136.244
G00 X118.463 Y136.350
G00 X118.526 Y136.437
G00 X118.624 Y136.568
G00 X118.698 Y136.662
G00 X118.770 Y136.749
G00 X118.840 Y136.831
G00 X118.944 Y136.947
G00 X119.030 Y137.037
G00 X119.113 Y137.121
G00 X119.199 Y137.203
G00 X119.317 Y137.312
G00 X119.410 Y137.394
G00 X119.504 Y137.473
G00 X119.577 Y137.531
G00 X119.703 Y137.628
G00 X119.802 Y137.700
G00 X119.904 Y137.771
G00 X119.992 Y137.829
G00 X120.132 Y137.918
G00 X120.236 Y137.980
G00 X120.344 Y138.041
G00 X120.373 Y138.056
G00 X114.024 Y138.056
G00 X114.024 Y132.215
G00 X114.882 Y133.624
G00 X114.997 Y133.667
G00 X115.110 Y133.705
G00 X115.282 Y133.762
G00 X115.431 Y133.806
G00 X115.561 Y133.840
G00 X115.684 Y133.870
G00 X115.860 Y133.910
G00 X115.991 Y133.935
G00 X116.124 Y133.958
G00 X116.246 Y133.977
G00 X116.430 Y134.001
G00 X116.549 Y134.014
G00 X116.661 Y134.023
G00 X116.676 Y134.134
G00 X116.696 Y134.252
G00 X116.730 Y134.434
G00 X116.755 Y134.551
G00 X116.785 Y134.680
G00 X116.820 Y134.816
G00 X116.869 Y134.993
G00 X116.909 Y135.120
G00 X116.953 Y135.253
G00 X116.995 Y135.370
G00 X117.063 Y135.549
G00 X117.118 Y135.681
G00 X117.177 Y135.816
G00 X117.226 Y135.922
G00 X117.310 Y136.090
G00 X117.366 Y136.198
G00 X117.429 Y136.313
G00 X117.498 Y136.432
G00 X117.594 Y136.589
G00 X117.682 Y136.727
G00 X117.767 Y136.851
G00 X117.839 Y136.951
G00 X117.950 Y137.098
G00 X118.030 Y137.199
G00 X114.882 Y137.199
G00 X114.882 Y133.624
G00 X115.739 Y134.759
G00 X115.844 Y134.780
;Nearing path end, moving to preshutoff position
G00 X115.925 Y134.794
G00 Z0 ;Valve closed
G00 X115.931 Y134.795
G00 X115.954 Y134.892
G00 X115.994 Y135.047
G00 X116.050 Y135.246
G00 X116.095 Y135.392
G00 X116.146 Y135.541
G00 X116.193 Y135.675
G00 X116.270 Y135.875
G00 X116.333 Y136.028
G00 X116.401 Y136.181
G00 X116.457 Y136.300
G00 X116.477 Y136.341
G00 X115.739 Y136.341
G00 X115.739 Y134.759
G4 P250 ;Pause for 250 milliseconds
;Completed path #5/13 on color #1
;Starting fill path #6/13, segments: 9, length: 10, color #1
G00 X135.363 Y86.967
G00 Z10 ;Valve open
G4 P197 ;Pause for 197 milliseconds
;Very short path, early shutoff without move
G00 Z0 ;Valve closed
G00 X135.311 Y86.985
G00 X135.128 Y87.049
G00 X134.938 Y87.121
G00 X134.752 Y87.197
G00 X134.581 Y87.272
G00 X134.576 Y87.147
G00 X134.566 Y86.940
G00 X135.363 Y86.967
G4 P250 ;Pause for 250 milliseconds
;Completed path #6/13 on color #1
;Starting fill path #7/13, segments: 3, length: 10, color #1, too small to fill, outline only
G00 X126.223 Y107.604
G00 Z10 ;Valve open
G4 P197 ;Pause for 197 milliseconds
;Very short path, early shutoff without move
G00 Z0 ;Valve closed
G00 X126.864 Y106.964
G00 X126.223 Y107.604
G4 P250 ;Pause for 250 milliseconds
;Completed path #7/13 on color #1
;Starting fill path #8/13, segments: 3, length: 14, color #1, too small to fill, outline only
G00 X127.824 Y106.003
G00 Z10 ;Valve open
G4 P197 ;Pause for 197 milliseconds
;Very short path, early shutoff without move
G00 Z0 ;Valve closed
G00 X128.785 Y105.042
G00 X127.824 Y106.003
G4 P250 ;Pause for 250 milliseconds
;Completed path #8/13 on color #1
;Starting fill path #9/13, segments: 4, length: 47, color #1, too small to fill, outline only
G00 X131.667 Y101.680
G00 Z10 ;Valve open
G4 P197 ;Pause for 197 milliseconds
G00 X132.148 Y101.680
G00 X130.832 Y103.400
G00 X129.105 Y104.722
;Nearing path end, moving to preshutoff position
G00 X129.110 Y104.717
G00 Z0 ;Valve closed
G00 X131.667 Y101.680
G4 P250 ;Pause for 250 milliseconds
;Completed path #9/13 on color #1
;Starting fill path #10/13, segments: 125, length: 5446, color #1, too small to fill, outline only
G00 X132.468 Y101.200
G00 Z10 ;Valve open
G4 P197 ;Pause for 197 milliseconds
G00 X136.925 Y97.173
G00 X137.978 Y96.222
G00 X138.392 Y95.847
G00 X138.910 Y95.809
G00 X141.402 Y95.622
G00 X141.754 Y95.595
G00 X145.425 Y95.679
G00 X147.714 Y95.731
G00 X148.800 Y95.756
G00 X147.266 Y97.997
G00 X142.092 Y103.124
G00 X141.502 Y103.734
G00 X128.851 Y116.399
G00 X125.103 Y120.253
G00 X119.431 Y125.853
G00 X118.567 Y126.780
G00 X117.477 Y127.129
G00 X117.417 Y127.138
G00 X117.411 Y127.086
G00 X117.354 Y127.038
G00 X117.097 Y125.537
G00 X117.097 Y85.508
G00 X117.383 Y79.475
G00 X118.178 Y76.625
G00 X119.796 Y74.022
G00 X120.835 Y72.955
G00 X124.801 Y70.591
G00 X129.792 Y69.709
G00 X135.190 Y69.657
G00 X165.612 Y69.657
G00 X172.689 Y70.431
G00 X175.781 Y71.891
G00 X178.439 Y74.507
G00 X180.017 Y77.583
G00 X180.702 Y80.878
G00 X180.822 Y87.750
G00 X180.822 Y115.930
G00 X180.608 Y122.523
G00 X179.914 Y125.622
G00 X178.445 Y128.478
G00 X178.420 Y128.579
G00 X178.335 Y128.628
G00 X176.911 Y130.193
G00 X172.177 Y132.787
G00 X166.564 Y133.651
G00 X155.204 Y133.382
G00 X131.187 Y133.382
G00 X125.423 Y133.381
G00 X123.709 Y133.062
G00 X123.661 Y133.062
G00 X123.665 Y133.018
G00 X123.561 Y132.852
G00 X123.983 Y131.746
G00 X124.942 Y130.889
G00 X125.123 Y130.727
G00 X128.001 Y127.795
G00 X130.081 Y125.792
G00 X130.249 Y125.649
G00 X133.022 Y122.905
G00 X135.537 Y120.323
G00 X136.040 Y119.851
G00 X146.880 Y108.891
G00 X149.824 Y106.010
G00 X151.852 Y104.024
G00 X152.416 Y103.472
G00 X153.335 Y102.555
G00 X154.382 Y101.868
G00 X154.877 Y102.515
G00 X154.884 Y103.441
G00 X154.884 Y103.537
G00 X154.884 Y104.839
G00 X154.884 Y108.405
G00 X154.741 Y112.081
G00 X152.002 Y114.970
G00 X145.917 Y121.214
G00 X143.178 Y123.950
G00 X142.760 Y124.535
G00 X142.929 Y125.120
G00 X144.797 Y125.217
G00 X165.932 Y125.217
G00 X169.538 Y125.094
G00 X171.147 Y124.493
G00 X172.373 Y123.135
G00 X172.867 Y119.611
G00 X172.656 Y115.930
G00 X172.656 Y84.548
G00 X172.730 Y81.733
G00 X171.940 Y79.132
G00 X169.877 Y77.853
G00 X167.152 Y77.464
G00 X161.769 Y77.663
G00 X135.350 Y77.663
G00 X130.231 Y77.523
G00 X127.748 Y78.001
G00 X125.854 Y79.425
G00 X125.195 Y81.151
G00 X125.055 Y83.293
G00 X125.262 Y87.430
G00 X125.262 Y108.023
G00 X125.322 Y108.085
G00 X125.983 Y108.085
G00 X126.032 Y108.054
G00 X125.583 Y107.604
G00 X125.583 Y87.590
G00 X125.380 Y83.471
G00 X125.521 Y81.333
G00 X126.176 Y79.590
G00 X128.094 Y78.226
G00 X130.729 Y77.797
G00 X135.990 Y77.983
G00 X161.929 Y77.983
G00 X166.831 Y77.760
G00 X169.398 Y78.017
G00 X171.280 Y78.997
G00 X172.353 Y81.786
G00 X172.336 Y84.868
G00 X172.336 Y115.770
G00 X172.524 Y119.448
G00 X171.971 Y122.975
G00 X170.790 Y124.256
G00 X169.230 Y124.807
G00 X165.771 Y124.897
G00 X150.080 Y124.897
G00 X146.832 Y125.119
G00 X143.709 Y124.800
G00 X143.551 Y124.187
G00 X144.065 Y123.588
G00 X146.878 Y120.734
G00 X152.640 Y115.130
G00 X155.048 Y112.248
G00 X155.204 Y107.764
G00 X155.204 Y102.961
G00 X155.091 Y102.005
G00 X154.400 Y101.434
G00 X153.319 Y101.965
G00 X152.470 Y102.919
G00 X147.766 Y107.585
G00 X129.478 Y125.730
G00 X124.148 Y130.995
G00 X123.268 Y131.972
G00 X123.032 Y133.159
G00 X124.505 Y133.758
G00 X126.223 Y133.703
G00 X163.209 Y133.703
G00 X170.217 Y133.537
G00 X173.562 Y132.742
G00 X176.587 Y130.948
G00 X179.325 Y127.648
G00 X180.666 Y123.990
G00 X181.142 Y115.770
G00 X181.142 Y90.632
G00 X181.337 Y84.085
G00 X180.530 Y77.663
G00 X179.152 Y74.838
G00 X177.148 Y72.496
G00 X174.626 Y70.720
G00 X171.696 Y69.592
G00 X166.524 Y69.162
G00 X161.288 Y69.337
G00 X131.507 Y69.337
G00 X125.743 Y69.738
G00 X122.350 Y71.301
G00 X119.622 Y73.687
G00 X117.719 Y76.760
G00 X116.804 Y80.385
G00 X116.777 Y92.393
G00 X116.777 Y124.736
G00 X116.710 Y126.270
G00 X117.166 Y127.613
G00 X118.375 Y127.432
G00 X119.318 Y126.452
G00 X124.622 Y121.214
G00 X143.222 Y102.526
G00 X147.853 Y97.839
G00 X148.726 Y97.081
G00 X149.198 Y96.103
G00 X148.470 Y95.391
G00 X146.974 Y95.171
G00 X144.156 Y95.275
G00 X141.157 Y95.145
G00 X138.232 Y95.500
G00 X135.980 Y97.136
;Nearing path end, moving to preshutoff position
G00 X135.059 Y98.191
G00 Z0 ;Valve closed
G00 X134.115 Y99.272
G00 X133.079 Y100.502
G00 X132.468 Y101.200
G4 P250 ;Pause for 250 milliseconds
;Completed path #10/13 on color #1
;Starting fill path #11/13, segments: 3984, length: 16312, color #1
G00 X154.642 Y101.080
G00 Z10 ;Valve open
G4 P197 ;Pause for 197 milliseconds
G00 X154.674 Y101.104
G00 X155.364 Y101.674
G00 X155.401 Y101.709
G00 X155.427 Y101.739
G00 X155.450 Y101.771
G00 X155.470 Y101.805
G00 X155.487 Y101.841
G00 X155.500 Y101.878
G00 X155.511 Y101.916
G00 X155.516 Y101.955
G00 X155.630 Y102.911
G00 X155.632 Y102.961
G00 X155.633 Y107.764
G00 X155.477 Y112.262
G00 X155.473 Y112.309
G00 X155.466 Y112.348
G00 X155.454 Y112.385
G00 X155.440 Y112.422
G00 X155.422 Y112.458
G00 X155.401 Y112.491
G00 X155.378 Y112.523
G00 X152.968 Y115.405
G00 X152.938 Y115.437
G00 X147.179 Y121.039
G00 X144.381 Y123.878
G00 X144.022 Y124.297
G00 X144.049 Y124.404
G00 X146.839 Y124.689
G00 X150.051 Y124.469
G00 X150.080 Y124.468
G00 X165.768 Y124.468
G00 X169.151 Y124.380
G00 X170.547 Y123.887
G00 X171.568 Y122.780
G00 X172.093 Y119.425
G00 X171.908 Y115.792
G00 X171.907 Y115.770
G00 X171.907 Y84.868
G00 X171.924 Y81.865
G00 X170.938 Y79.302
G00 X169.273 Y78.435
G00 X166.821 Y78.189
G00 X161.948 Y78.412
G00 X135.990 Y78.412
G00 X130.756 Y78.227
G00 X128.261 Y78.633
G00 X126.531 Y79.864
G00 X125.945 Y81.424
G00 X125.809 Y83.475
G00 X126.011 Y87.569
G00 X126.012 Y87.590
G00 X126.012 Y107.427
G00 X126.039 Y107.454
G00 X126.749 Y106.773
G00 X128.681 Y104.779
G00 X128.680 Y104.777
G00 X128.677 Y104.738
G00 X128.678 Y104.698
G00 X128.681 Y104.659
G00 X128.689 Y104.620
G00 X128.700 Y104.582
G00 X128.715 Y104.546
G00 X128.732 Y104.511
G00 X128.754 Y104.477
G00 X128.777 Y104.446
G00 X131.339 Y101.404
G00 X131.379 Y101.362
G00 X131.410 Y101.337
G00 X131.443 Y101.315
G00 X131.477 Y101.296
G00 X131.513 Y101.280
G00 X131.551 Y101.267
G00 X131.589 Y101.259
G00 X131.628 Y101.253
G00 X131.667 Y101.251
G00 X132.042 Y101.251
G00 X132.040 Y101.212
G00 X132.040 Y101.172
G00 X132.044 Y101.133
G00 X132.052 Y101.095
G00 X132.064 Y101.057
G00 X132.078 Y101.021
G00 X132.096 Y100.985
G00 X132.118 Y100.952
G00 X132.142 Y100.921
G00 X133.790 Y98.993
G00 X135.657 Y96.854
G00 X135.697 Y96.815
G00 X135.728 Y96.790
G00 X137.980 Y95.153
G00 X137.997 Y95.142
G00 X138.030 Y95.121
G00 X138.066 Y95.105
G00 X138.103 Y95.091
G00 X138.141 Y95.081
G00 X138.180 Y95.074
G00 X141.105 Y94.719
G00 X141.136 Y94.717
G00 X141.175 Y94.717
G00 X144.157 Y94.846
G00 X146.958 Y94.742
G00 X146.997 Y94.743
G00 X147.036 Y94.747
G00 X148.532 Y94.966
G00 X148.565 Y94.972
G00 X148.603 Y94.983
G00 X148.640 Y94.997
G00 X148.675 Y95.014
G00 X148.709 Y95.035
G00 X148.741 Y95.058
G00 X148.770 Y95.084
G00 X149.498 Y95.797
G00 X149.514 Y95.812
G00 X149.539 Y95.843
G00 X149.561 Y95.875
G00 X149.581 Y95.909
G00 X149.597 Y95.945
G00 X149.610 Y95.983
G00 X149.619 Y96.021
G00 X149.625 Y96.060
G00 X149.627 Y96.099
G00 X149.626 Y96.139
G00 X149.621 Y96.177
G00 X149.612 Y96.216
G00 X149.600 Y96.253
G00 X149.585 Y96.290
G00 X149.112 Y97.268
G00 X149.085 Y97.316
G00 X149.062 Y97.348
G00 X149.036 Y97.378
G00 X149.007 Y97.405
G00 X148.146 Y98.153
G00 X143.528 Y102.828
G00 X124.926 Y121.516
G00 X119.622 Y126.755
G00 X118.684 Y127.730
G00 X118.651 Y127.760
G00 X118.620 Y127.784
G00 X118.587 Y127.805
G00 X118.551 Y127.823
G00 X118.515 Y127.838
G00 X118.477 Y127.849
G00 X118.438 Y127.856
G00 X117.230 Y128.037
G00 X117.186 Y128.041
G00 X117.146 Y128.041
G00 X117.107 Y128.038
G00 X117.068 Y128.030
G00 X117.030 Y128.020
G00 X116.993 Y128.005
G00 X116.958 Y127.988
G00 X116.925 Y127.967
G00 X116.893 Y127.943
G00 X116.864 Y127.917
G00 X116.837 Y127.888
G00 X116.814 Y127.856
G00 X116.793 Y127.823
G00 X116.775 Y127.788
G00 X116.761 Y127.751
G00 X116.304 Y126.408
G00 X116.293 Y126.369
G00 X116.285 Y126.330
G00 X116.282 Y126.291
G00 X116.282 Y126.252
G00 X116.348 Y124.726
G00 X116.348 Y92.393
G00 X116.375 Y80.384
G00 X116.376 Y80.358
G00 X116.380 Y80.319
G00 X116.388 Y80.280
G00 X117.303 Y76.655
G00 X117.319 Y76.605
G00 X117.335 Y76.568
G00 X117.355 Y76.534
G00 X119.257 Y73.461
G00 X119.285 Y73.421
G00 X119.311 Y73.391
G00 X119.340 Y73.365
G00 X122.068 Y70.979
G00 X122.103 Y70.952
G00 X122.136 Y70.930
G00 X122.171 Y70.912
G00 X125.564 Y69.349
G00 X125.598 Y69.335
G00 X125.636 Y69.323
G00 X125.674 Y69.315
G00 X125.713 Y69.310
G00 X131.478 Y68.909
G00 X131.507 Y68.908
G00 X161.280 Y68.908
G00 X166.509 Y68.734
G00 X166.559 Y68.735
G00 X171.731 Y69.165
G00 X171.774 Y69.171
G00 X171.812 Y69.180
G00 X171.850 Y69.192
G00 X174.780 Y70.320
G00 X174.805 Y70.330
G00 X174.839 Y70.348
G00 X174.873 Y70.369
G00 X177.394 Y72.145
G00 X177.417 Y72.162
G00 X177.446 Y72.188
G00 X177.474 Y72.217
G00 X179.478 Y74.559
G00 X179.496 Y74.583
G00 X179.518 Y74.616
G00 X179.538 Y74.650
G00 X180.915 Y77.475
G00 X180.924 Y77.496
G00 X180.938 Y77.532
G00 X180.948 Y77.571
G00 X180.955 Y77.610
G00 X181.762 Y84.031
G00 X181.765 Y84.058
G00 X181.766 Y84.098
G00 X181.571 Y90.639
G00 X181.571 Y115.770
G00 X181.570 Y115.795
G00 X181.094 Y124.015
G00 X181.089 Y124.062
G00 X181.080 Y124.100
G00 X181.069 Y124.138
G00 X179.728 Y127.796
G00 X179.717 Y127.822
G00 X179.700 Y127.857
G00 X179.679 Y127.891
G00 X179.655 Y127.922
G00 X176.917 Y131.222
G00 X176.898 Y131.243
G00 X176.870 Y131.270
G00 X176.839 Y131.295
G00 X176.806 Y131.317
G00 X173.781 Y133.111
G00 X173.736 Y133.134
G00 X173.699 Y133.148
G00 X173.661 Y133.159
G00 X170.317 Y133.954
G00 X170.267 Y133.963
G00 X170.228 Y133.966
G00 X166.811 Y134.046
G00 X166.630 Y134.074
G00 X166.594 Y134.078
G00 X166.554 Y134.080
G00 X165.987 Y134.066
G00 X163.220 Y134.131
G00 X126.231 Y134.131
G00 X124.519 Y134.187
G00 X124.497 Y134.187
G00 X124.458 Y134.184
G00 X124.419 Y134.178
G00 X124.380 Y134.169
G00 X124.343 Y134.155
G00 X122.871 Y133.556
G00 X122.835 Y133.540
G00 X122.801 Y133.520
G00 X122.769 Y133.497
G00 X122.739 Y133.471
G00 X122.712 Y133.443
G00 X122.687 Y133.413
G00 X122.665 Y133.380
G00 X122.646 Y133.345
G00 X122.631 Y133.308
G00 X122.619 Y133.271
G00 X122.610 Y133.232
G00 X122.605 Y133.193
G00 X122.604 Y133.154
G00 X122.606 Y133.115
G00 X122.612 Y133.076
G00 X122.848 Y131.889
G00 X122.856 Y131.856
G00 X122.868 Y131.819
G00 X122.884 Y131.783
G00 X122.903 Y131.748
G00 X122.925 Y131.715
G00 X122.950 Y131.685
G00 X123.830 Y130.708
G00 X123.847 Y130.690
G00 X129.176 Y125.426
G00 X147.464 Y107.281
G00 X152.160 Y102.623
G00 X152.998 Y101.680
G00 X153.032 Y101.646
G00 X153.062 Y101.621
G00 X153.095 Y101.599
G00 X153.130 Y101.580
G00 X154.211 Y101.049
G00 X154.264 Y101.028
G00 X154.303 Y101.017
G00 X154.342 Y101.009
G00 X154.381 Y101.006
G00 X154.420 Y101.006
G00 X154.460 Y101.009
G00 X154.498 Y101.017
G00 X154.536 Y101.028
G00 X154.573 Y101.042
G00 X154.608 Y101.059
G00 X154.642 Y101.080
G00 X155.158 Y100.395
G00 X155.189 Y100.419
G00 X155.219 Y100.443
G00 X155.910 Y101.013
G00 X155.950 Y101.049
G00 X155.987 Y101.083
G00 X156.009 Y101.105
G00 X156.047 Y101.146
G00 X156.074 Y101.175
G00 X156.122 Y101.237
G00 X156.145 Y101.269
G00 X156.189 Y101.336
G00 X156.209 Y101.370
G00 X156.245 Y101.438
G00 X156.262 Y101.474
G00 X156.293 Y101.548
G00 X156.306 Y101.585
G00 X156.330 Y101.661
G00 X156.340 Y101.700
G00 X156.357 Y101.777
G00 X156.363 Y101.816
G00 X156.369 Y101.854
G00 X156.481 Y102.810
G00 X156.486 Y102.861
G00 X156.489 Y102.911
G00 X156.490 Y102.961
G00 X156.490 Y107.764
G00 X156.490 Y107.794
G00 X156.334 Y112.292
G00 X156.332 Y112.339
G00 X156.327 Y112.385
G00 X156.324 Y112.415
G00 X156.315 Y112.470
G00 X156.308 Y112.509
G00 X156.288 Y112.589
G00 X156.277 Y112.627
G00 X156.254 Y112.696
G00 X156.239 Y112.733
G00 X156.205 Y112.809
G00 X156.188 Y112.844
G00 X156.149 Y112.912
G00 X156.128 Y112.946
G00 X156.083 Y113.011
G00 X156.059 Y113.043
G00 X156.036 Y113.072
G00 X153.626 Y115.954
G00 X153.597 Y115.988
G00 X153.567 Y116.020
G00 X153.536 Y116.051
G00 X147.782 Y121.649
G00 X145.746 Y123.715
G00 X146.854 Y123.828
G00 X149.993 Y123.613
G00 X150.024 Y123.611
G00 X150.054 Y123.611
G00 X165.753 Y123.610
G00 X168.994 Y123.527
G00 X170.060 Y123.150
G00 X170.761 Y122.390
G00 X171.232 Y119.380
G00 X171.051 Y115.835
G00 X171.050 Y115.791
G00 X171.050 Y84.868
G00 X171.065 Y82.022
G00 X170.254 Y79.913
G00 X169.023 Y79.272
G00 X166.798 Y79.049
G00 X161.987 Y79.268
G00 X161.948 Y79.269
G00 X135.990 Y79.269
G00 X135.960 Y79.269
G00 X130.811 Y79.087
G00 X128.596 Y79.448
G00 X127.242 Y80.411
G00 X126.792 Y81.607
G00 X126.668 Y83.482
G00 X126.868 Y87.527
G00 X126.869 Y87.568
G00 X126.869 Y105.416
G00 X127.863 Y104.390
G00 X127.867 Y104.376
G00 X127.878 Y104.338
G00 X127.903 Y104.266
G00 X127.918 Y104.230
G00 X127.950 Y104.157
G00 X127.968 Y104.123
G00 X128.007 Y104.053
G00 X128.028 Y104.020
G00 X128.072 Y103.957
G00 X128.096 Y103.926
G00 X128.122 Y103.894
G00 X130.683 Y100.851
G00 X130.724 Y100.807
G00 X130.764 Y100.765
G00 X130.789 Y100.740
G00 X130.831 Y100.703
G00 X130.861 Y100.678
G00 X130.883 Y100.660
G00 X130.929 Y100.627
G00 X130.961 Y100.605
G00 X131.024 Y100.566
G00 X131.059 Y100.547
G00 X131.133 Y100.510
G00 X131.170 Y100.494
G00 X131.241 Y100.467
G00 X131.278 Y100.454
G00 X131.357 Y100.432
G00 X131.396 Y100.423
G00 X131.451 Y100.413
G00 X131.464 Y100.397
G00 X131.490 Y100.364
G00 X133.138 Y98.436
G00 X135.011 Y96.290
G00 X135.051 Y96.248
G00 X135.091 Y96.208
G00 X135.117 Y96.183
G00 X135.160 Y96.147
G00 X135.190 Y96.122
G00 X135.223 Y96.096
G00 X137.476 Y94.460
G00 X137.511 Y94.435
G00 X137.560 Y94.403
G00 X137.594 Y94.384
G00 X137.661 Y94.348
G00 X137.697 Y94.331
G00 X137.774 Y94.298
G00 X137.811 Y94.285
G00 X137.882 Y94.262
G00 X137.921 Y94.252
G00 X137.999 Y94.236
G00 X138.038 Y94.229
G00 X138.077 Y94.223
G00 X141.001 Y93.868
G00 X141.034 Y93.865
G00 X141.065 Y93.862
G00 X141.131 Y93.859
G00 X141.171 Y93.859
G00 X141.212 Y93.860
G00 X144.160 Y93.988
G00 X146.926 Y93.885
G00 X146.966 Y93.885
G00 X147.005 Y93.885
G00 X147.084 Y93.890
G00 X147.123 Y93.894
G00 X147.161 Y93.898
G00 X148.657 Y94.118
G00 X148.689 Y94.124
G00 X148.721 Y94.129
G00 X148.794 Y94.146
G00 X148.832 Y94.157
G00 X148.902 Y94.179
G00 X148.939 Y94.193
G00 X149.015 Y94.226
G00 X149.050 Y94.243
G00 X149.120 Y94.281
G00 X149.154 Y94.302
G00 X149.218 Y94.344
G00 X149.249 Y94.368
G00 X149.311 Y94.417
G00 X149.340 Y94.443
G00 X149.369 Y94.471
G00 X150.098 Y95.184
G00 X150.130 Y95.217
G00 X150.169 Y95.259
G00 X150.194 Y95.290
G00 X150.242 Y95.353
G00 X150.265 Y95.385
G00 X150.307 Y95.452
G00 X150.327 Y95.487
G00 X150.363 Y95.557
G00 X150.379 Y95.593
G00 X150.408 Y95.666
G00 X150.420 Y95.703
G00 X150.442 Y95.777
G00 X150.452 Y95.815
G00 X150.468 Y95.894
G00 X150.473 Y95.933
G00 X150.481 Y96.012
G00 X150.483 Y96.052
G00 X150.484 Y96.131
G00 X150.483 Y96.170
G00 X150.476 Y96.249
G00 X150.471 Y96.288
G00 X150.458 Y96.363
G00 X150.449 Y96.401
G00 X150.428 Y96.480
G00 X150.416 Y96.518
G00 X150.389 Y96.589
G00 X150.374 Y96.625
G00 X150.357 Y96.663
G00 X149.884 Y97.641
G00 X149.858 Y97.690
G00 X149.831 Y97.738
G00 X149.811 Y97.771
G00 X149.780 Y97.817
G00 X149.757 Y97.850
G00 X149.708 Y97.911
G00 X149.682 Y97.941
G00 X149.626 Y97.999
G00 X149.597 Y98.027
G00 X149.569 Y98.052
G00 X148.735 Y98.778
G00 X144.138 Y103.430
G00 X125.534 Y122.121
G00 X120.229 Y127.360
G00 X119.302 Y128.324
G00 X119.270 Y128.355
G00 X119.238 Y128.386
G00 X119.216 Y128.405
G00 X119.173 Y128.440
G00 X119.142 Y128.464
G00 X119.077 Y128.510
G00 X119.044 Y128.530
G00 X118.973 Y128.571
G00 X118.938 Y128.588
G00 X118.870 Y128.619
G00 X118.834 Y128.633
G00 X118.756 Y128.660
G00 X118.718 Y128.671
G00 X118.642 Y128.690
G00 X118.603 Y128.698
G00 X118.565 Y128.704
G00 X117.357 Y128.885
G00 X117.314 Y128.891
G00 X117.270 Y128.895
G00 X117.241 Y128.897
G00 X117.186 Y128.899
G00 X117.146 Y128.899
G00 X117.063 Y128.895
G00 X117.024 Y128.891
G00 X116.949 Y128.881
G00 X116.911 Y128.873
G00 X116.835 Y128.856
G00 X116.797 Y128.845
G00 X116.722 Y128.820
G00 X116.686 Y128.806
G00 X116.610 Y128.773
G00 X116.574 Y128.755
G00 X116.509 Y128.718
G00 X116.475 Y128.697
G00 X116.409 Y128.652
G00 X116.377 Y128.629
G00 X116.317 Y128.579
G00 X116.288 Y128.552
G00 X116.230 Y128.495
G00 X116.204 Y128.466
G00 X116.156 Y128.408
G00 X116.132 Y128.377
G00 X116.085 Y128.309
G00 X116.065 Y128.276
G00 X116.025 Y128.207
G00 X116.008 Y128.171
G00 X115.978 Y128.104
G00 X115.963 Y128.067
G00 X115.949 Y128.027
G00 X115.492 Y126.684
G00 X115.480 Y126.645
G00 X115.469 Y126.607
G00 X115.450 Y126.526
G00 X115.443 Y126.487
G00 X115.432 Y126.409
G00 X115.428 Y126.370
G00 X115.424 Y126.294
G00 X115.424 Y126.255
G00 X115.425 Y126.214
G00 X115.491 Y124.706
G00 X115.491 Y92.393
G00 X115.518 Y80.382
G00 X115.519 Y80.328
G00 X115.524 Y80.267
G00 X115.528 Y80.228
G00 X115.531 Y80.200
G00 X115.541 Y80.145
G00 X115.549 Y80.106
G00 X115.557 Y80.070
G00 X116.472 Y76.445
G00 X116.486 Y76.396
G00 X116.502 Y76.345
G00 X116.514 Y76.309
G00 X116.535 Y76.258
G00 X116.551 Y76.222
G00 X116.586 Y76.151
G00 X116.606 Y76.116
G00 X116.625 Y76.083
G00 X118.528 Y73.010
G00 X118.555 Y72.969
G00 X118.583 Y72.930
G00 X118.602 Y72.903
G00 X118.637 Y72.860
G00 X118.663 Y72.830
G00 X118.719 Y72.772
G00 X118.747 Y72.744
G00 X118.775 Y72.719
G00 X121.504 Y70.333
G00 X121.539 Y70.305
G00 X121.573 Y70.277
G00 X121.638 Y70.231
G00 X121.671 Y70.209
G00 X121.696 Y70.194
G00 X121.744 Y70.167
G00 X121.780 Y70.149
G00 X121.812 Y70.133
G00 X125.205 Y68.570
G00 X125.235 Y68.557
G00 X125.269 Y68.543
G00 X125.346 Y68.515
G00 X125.384 Y68.504
G00 X125.461 Y68.484
G00 X125.500 Y68.476
G00 X125.571 Y68.464
G00 X125.611 Y68.459
G00 X125.654 Y68.455
G00 X131.418 Y68.054
G00 X131.451 Y68.052
G00 X131.481 Y68.051
G00 X161.262 Y68.051
G00 X166.481 Y67.877
G00 X166.531 Y67.877
G00 X166.581 Y67.878
G00 X166.630 Y67.880
G00 X171.802 Y68.310
G00 X171.844 Y68.315
G00 X171.886 Y68.321
G00 X171.916 Y68.325
G00 X171.970 Y68.336
G00 X172.009 Y68.345
G00 X172.081 Y68.366
G00 X172.118 Y68.378
G00 X172.157 Y68.392
G00 X175.088 Y69.520
G00 X175.136 Y69.539
G00 X175.199 Y69.568
G00 X175.234 Y69.587
G00 X175.301 Y69.626
G00 X175.334 Y69.647
G00 X175.367 Y69.668
G00 X177.888 Y71.444
G00 X177.912 Y71.462
G00 X177.934 Y71.478
G00 X177.985 Y71.520
G00 X178.014 Y71.546
G00 X178.071 Y71.600
G00 X178.097 Y71.629
G00 X178.125 Y71.659
G00 X180.129 Y74.002
G00 X180.150 Y74.026
G00 X180.169 Y74.050
G00 X180.208 Y74.104
G00 X180.230 Y74.137
G00 X180.272 Y74.205
G00 X180.291 Y74.240
G00 X180.308 Y74.274
G00 X181.686 Y77.099
G00 X181.703 Y77.137
G00 X181.729 Y77.198
G00 X181.743 Y77.235
G00 X181.766 Y77.308
G00 X181.776 Y77.346
G00 X181.793 Y77.425
G00 X181.800 Y77.463
G00 X181.806 Y77.502
G00 X182.613 Y83.925
G00 X182.619 Y83.978
G00 X182.622 Y84.046
G00 X182.623 Y84.086
G00 X182.622 Y84.123
G00 X182.428 Y90.652
G00 X182.428 Y115.770
G00 X182.427 Y115.820
G00 X181.950 Y124.065
G00 X181.946 Y124.112
G00 X181.941 Y124.158
G00 X181.937 Y124.188
G00 X181.927 Y124.242
G00 X181.918 Y124.281
G00 X181.899 Y124.357
G00 X181.887 Y124.395
G00 X181.874 Y124.433
G00 X180.533 Y128.091
G00 X180.523 Y128.118
G00 X180.512 Y128.144
G00 X180.485 Y128.205
G00 X180.467 Y128.240
G00 X180.430 Y128.307
G00 X180.409 Y128.341
G00 X180.364 Y128.407
G00 X180.340 Y128.438
G00 X180.315 Y128.470
G00 X177.577 Y131.769
G00 X177.555 Y131.794
G00 X177.536 Y131.816
G00 X177.493 Y131.861
G00 X177.464 Y131.888
G00 X177.405 Y131.940
G00 X177.374 Y131.965
G00 X177.311 Y132.010
G00 X177.278 Y132.032
G00 X177.243 Y132.054
G00 X174.218 Y133.848
G00 X174.173 Y133.873
G00 X174.128 Y133.896
G00 X174.098 Y133.911
G00 X174.047 Y133.933
G00 X174.010 Y133.947
G00 X173.937 Y133.972
G00 X173.899 Y133.982
G00 X173.860 Y133.993
G00 X170.515 Y134.788
G00 X170.465 Y134.799
G00 X170.415 Y134.808
G00 X170.385 Y134.812
G00 X170.330 Y134.818
G00 X170.290 Y134.821
G00 X170.247 Y134.823
G00 X166.887 Y134.903
G00 X166.761 Y134.922
G00 X166.725 Y134.927
G00 X166.689 Y134.930
G00 X166.614 Y134.936
G00 X166.574 Y134.936
G00 X166.534 Y134.936
G00 X165.987 Y134.924
G00 X163.240 Y134.988
G00 X126.248 Y134.989
G00 X124.547 Y135.044
G00 X124.504 Y135.044
G00 X124.442 Y135.043
G00 X124.402 Y135.040
G00 X124.324 Y135.031
G00 X124.285 Y135.025
G00 X124.209 Y135.009
G00 X124.171 Y135.000
G00 X124.093 Y134.976
G00 X124.056 Y134.963
G00 X124.020 Y134.949
G00 X122.548 Y134.350
G00 X122.513 Y134.335
G00 X122.477 Y134.319
G00 X122.405 Y134.282
G00 X122.371 Y134.262
G00 X122.304 Y134.218
G00 X122.272 Y134.196
G00 X122.212 Y134.149
G00 X122.182 Y134.124
G00 X122.123 Y134.068
G00 X122.096 Y134.039
G00 X122.045 Y133.983
G00 X122.021 Y133.952
G00 X121.972 Y133.887
G00 X121.950 Y133.854
G00 X121.910 Y133.785
G00 X121.891 Y133.750
G00 X121.857 Y133.680
G00 X121.842 Y133.644
G00 X121.814 Y133.569
G00 X121.802 Y133.532
G00 X121.782 Y133.456
G00 X121.773 Y133.418
G00 X121.760 Y133.343
G00 X121.755 Y133.304
G00 X121.748 Y133.221
G00 X121.747 Y133.181
G00 X121.748 Y133.103
G00 X121.750 Y133.063
G00 X121.758 Y132.988
G00 X121.764 Y132.949
G00 X121.771 Y132.908
G00 X122.007 Y131.722
G00 X122.014 Y131.691
G00 X122.021 Y131.659
G00 X122.042 Y131.588
G00 X122.054 Y131.550
G00 X122.082 Y131.476
G00 X122.098 Y131.440
G00 X122.132 Y131.370
G00 X122.151 Y131.335
G00 X122.193 Y131.267
G00 X122.215 Y131.234
G00 X122.262 Y131.171
G00 X122.287 Y131.141
G00 X122.313 Y131.112
G00 X123.192 Y130.134
G00 X123.228 Y130.097
G00 X128.573 Y124.816
G00 X146.860 Y106.672
G00 X151.537 Y102.034
G00 X152.357 Y101.110
G00 X152.389 Y101.077
G00 X152.423 Y101.043
G00 X152.446 Y101.020
G00 X152.487 Y100.983
G00 X152.518 Y100.958
G00 X152.584 Y100.909
G00 X152.617 Y100.887
G00 X152.682 Y100.848
G00 X152.716 Y100.828
G00 X152.752 Y100.810
G00 X153.834 Y100.279
G00 X153.886 Y100.256
G00 X153.940 Y100.234
G00 X153.979 Y100.219
G00 X154.032 Y100.202
G00 X154.070 Y100.192
G00 X154.145 Y100.174
G00 X154.184 Y100.167
G00 X154.262 Y100.156
G00 X154.301 Y100.152
G00 X154.381 Y100.148
G00 X154.420 Y100.148
G00 X154.499 Y100.152
G00 X154.538 Y100.156
G00 X154.617 Y100.167
G00 X154.656 Y100.174
G00 X154.735 Y100.193
G00 X154.773 Y100.204
G00 X154.845 Y100.228
G00 X154.882 Y100.242
G00 X154.952 Y100.273
G00 X154.987 Y100.290
G00 X155.058 Y100.330
G00 X155.092 Y100.350
G00 X155.158 Y100.395
G00 X155.640 Y99.687
G00 X155.674 Y99.710
G00 X155.705 Y99.734
G00 X155.751 Y99.770
G00 X156.456 Y100.353
G00 X156.515 Y100.404
G00 X156.573 Y100.457
G00 X156.608 Y100.491
G00 X156.636 Y100.519
G00 X156.674 Y100.560
G00 X156.694 Y100.582
G00 X156.720 Y100.612
G00 X156.745 Y100.642
G00 X156.794 Y100.704
G00 X156.818 Y100.735
G00 X156.841 Y100.767
G00 X156.864 Y100.801
G00 X156.908 Y100.868
G00 X156.928 Y100.902
G00 X156.948 Y100.935
G00 X156.967 Y100.969
G00 X157.003 Y101.038
G00 X157.021 Y101.073
G00 X157.038 Y101.108
G00 X157.054 Y101.145
G00 X157.085 Y101.219
G00 X157.099 Y101.256
G00 X157.112 Y101.293
G00 X157.125 Y101.329
G00 X157.149 Y101.405
G00 X157.160 Y101.445
G00 X157.170 Y101.483
G00 X157.179 Y101.524
G00 X157.196 Y101.601
G00 X157.203 Y101.639
G00 X157.209 Y101.678
G00 X157.217 Y101.732
G00 X157.333 Y102.710
G00 X157.340 Y102.785
G00 X157.345 Y102.862
G00 X157.347 Y102.939
G00 X157.348 Y107.764
G00 X157.347 Y107.804
G00 X157.191 Y112.322
G00 X157.187 Y112.392
G00 X157.181 Y112.462
G00 X157.176 Y112.509
G00 X157.171 Y112.549
G00 X157.162 Y112.604
G00 X157.157 Y112.632
G00 X157.150 Y112.671
G00 X157.141 Y112.711
G00 X157.121 Y112.791
G00 X157.111 Y112.830
G00 X157.100 Y112.869
G00 X157.089 Y112.902
G00 X157.066 Y112.972
G00 X157.053 Y113.007
G00 X157.038 Y113.044
G00 X157.023 Y113.083
G00 X156.989 Y113.159
G00 X156.971 Y113.196
G00 X156.953 Y113.231
G00 X156.935 Y113.265
G00 X156.896 Y113.333
G00 X156.876 Y113.367
G00 X156.855 Y113.400
G00 X156.834 Y113.433
G00 X156.789 Y113.499
G00 X156.765 Y113.531
G00 X156.741 Y113.563
G00 X156.705 Y113.607
G00 X154.284 Y116.505
G00 X154.241 Y116.554
G00 X154.196 Y116.603
G00 X154.150 Y116.651
G00 X148.384 Y122.260
G00 X147.746 Y122.907
G00 X149.934 Y122.758
G00 X149.980 Y122.755
G00 X150.027 Y122.753
G00 X165.738 Y122.753
G00 X168.836 Y122.673
G00 X169.574 Y122.412
G00 X169.954 Y122.001
G00 X170.371 Y119.334
G00 X170.195 Y115.879
G00 X170.193 Y115.820
G00 X170.193 Y115.791
G00 X170.192 Y84.868
G00 X170.207 Y82.179
G00 X169.570 Y80.523
G00 X168.774 Y80.109
G00 X166.775 Y79.908
G00 X162.026 Y80.125
G00 X161.964 Y80.127
G00 X135.990 Y80.127
G00 X135.945 Y80.126
G00 X130.866 Y79.947
G00 X128.930 Y80.262
G00 X127.952 Y80.958
G00 X127.639 Y81.790
G00 X127.527 Y83.488
G00 X127.724 Y87.485
G00 X127.726 Y87.541
G00 X127.726 Y103.031
G00 X130.028 Y100.299
G00 X130.048 Y100.276
G00 X130.088 Y100.231
G00 X130.108 Y100.211
G00 X130.148 Y100.169
G00 X130.185 Y100.132
G00 X130.220 Y100.099
G00 X130.262 Y100.062
G00 X130.313 Y100.019
G00 X130.346 Y99.992
G00 X130.378 Y99.968
G00 X130.423 Y99.935
G00 X130.448 Y99.918
G00 X130.480 Y99.895
G00 X130.511 Y99.875
G00 X130.575 Y99.836
G00 X130.607 Y99.817
G00 X130.641 Y99.798
G00 X130.679 Y99.778
G00 X130.753 Y99.742
G00 X130.790 Y99.724
G00 X130.826 Y99.709
G00 X130.861 Y99.695
G00 X130.932 Y99.667
G00 X130.968 Y99.654
G00 X130.969 Y99.653
G00 X132.486 Y97.879
G00 X134.366 Y95.726
G00 X134.423 Y95.664
G00 X134.444 Y95.642
G00 X134.485 Y95.602
G00 X134.526 Y95.562
G00 X134.558 Y95.534
G00 X134.599 Y95.497
G00 X134.622 Y95.479
G00 X134.653 Y95.454
G00 X134.702 Y95.415
G00 X136.971 Y93.766
G00 X137.022 Y93.731
G00 X137.050 Y93.712
G00 X137.100 Y93.681
G00 X137.124 Y93.666
G00 X137.158 Y93.646
G00 X137.189 Y93.628
G00 X137.257 Y93.592
G00 X137.292 Y93.574
G00 X137.328 Y93.557
G00 X137.367 Y93.539
G00 X137.443 Y93.507
G00 X137.481 Y93.492
G00 X137.518 Y93.479
G00 X137.553 Y93.467
G00 X137.625 Y93.445
G00 X137.662 Y93.434
G00 X137.700 Y93.424
G00 X137.739 Y93.414
G00 X137.817 Y93.398
G00 X137.857 Y93.390
G00 X137.896 Y93.383
G00 X137.954 Y93.374
G00 X140.898 Y93.017
G00 X140.950 Y93.011
G00 X140.995 Y93.008
G00 X141.028 Y93.006
G00 X141.094 Y93.002
G00 X141.128 Y93.002
G00 X141.167 Y93.002
G00 X141.227 Y93.002
G00 X144.163 Y93.130
G00 X146.894 Y93.029
G00 X146.954 Y93.028
G00 X147.013 Y93.028
G00 X147.052 Y93.029
G00 X147.131 Y93.033
G00 X147.171 Y93.037
G00 X147.210 Y93.040
G00 X147.267 Y93.047
G00 X148.782 Y93.270
G00 X148.830 Y93.277
G00 X148.877 Y93.287
G00 X148.914 Y93.294
G00 X148.987 Y93.311
G00 X149.023 Y93.320
G00 X149.061 Y93.331
G00 X149.096 Y93.341
G00 X149.166 Y93.364
G00 X149.201 Y93.376
G00 X149.238 Y93.390
G00 X149.277 Y93.405
G00 X149.353 Y93.438
G00 X149.391 Y93.455
G00 X149.426 Y93.472
G00 X149.461 Y93.490
G00 X149.530 Y93.528
G00 X149.566 Y93.548
G00 X149.600 Y93.569
G00 X149.632 Y93.590
G00 X149.695 Y93.632
G00 X149.727 Y93.654
G00 X149.758 Y93.677
G00 X149.789 Y93.701
G00 X149.850 Y93.750
G00 X149.880 Y93.776
G00 X149.909 Y93.802
G00 X149.955 Y93.844
G00 X150.698 Y94.571
G00 X150.744 Y94.617
G00 X150.767 Y94.642
G00 X150.805 Y94.685
G00 X150.824 Y94.706
G00 X150.850 Y94.736
G00 X150.874 Y94.767
G00 X150.922 Y94.830
G00 X150.946 Y94.862
G00 X150.969 Y94.895
G00 X150.991 Y94.928
G00 X151.033 Y94.995
G00 X151.054 Y95.030
G00 X151.073 Y95.064
G00 X151.092 Y95.099
G00 X151.128 Y95.170
G00 X151.145 Y95.206
G00 X151.161 Y95.242
G00 X151.176 Y95.277
G00 X151.205 Y95.349
G00 X151.218 Y95.386
G00 X151.231 Y95.424
G00 X151.244 Y95.461
G00 X151.265 Y95.536
G00 X151.275 Y95.572
G00 X151.284 Y95.610
G00 X151.293 Y95.649
G00 X151.308 Y95.728
G00 X151.315 Y95.768
G00 X151.321 Y95.807
G00 X151.326 Y95.847
G00 X151.334 Y95.926
G00 X151.337 Y95.965
G00 X151.339 Y96.005
G00 X151.341 Y96.044
G00 X151.342 Y96.123
G00 X151.341 Y96.162
G00 X151.339 Y96.201
G00 X151.337 Y96.240
G00 X151.331 Y96.320
G00 X151.327 Y96.360
G00 X151.321 Y96.399
G00 X151.315 Y96.437
G00 X151.302 Y96.512
G00 X151.295 Y96.549
G00 X151.286 Y96.587
G00 X151.277 Y96.626
G00 X151.256 Y96.704
G00 X151.244 Y96.744
G00 X151.232 Y96.782
G00 X151.219 Y96.818
G00 X151.193 Y96.889
G00 X151.179 Y96.924
G00 X151.163 Y96.961
G00 X151.138 Y97.016
G00 X150.656 Y98.014
G00 X150.642 Y98.041
G00 X150.617 Y98.090
G00 X150.577 Y98.161
G00 X150.550 Y98.207
G00 X150.522 Y98.251
G00 X150.491 Y98.297
G00 X150.453 Y98.352
G00 X150.428 Y98.383
G00 X150.380 Y98.445
G00 X150.354 Y98.475
G00 X150.328 Y98.505
G00 X150.301 Y98.535
G00 X150.245 Y98.593
G00 X150.217 Y98.621
G00 X150.188 Y98.649
G00 X150.146 Y98.687
G00 X149.321 Y99.404
G00 X144.747 Y104.033
G00 X126.141 Y122.726
G00 X120.840 Y127.962
G00 X119.920 Y128.919
G00 X119.873 Y128.965
G00 X119.825 Y129.011
G00 X119.793 Y129.040
G00 X119.760 Y129.068
G00 X119.717 Y129.104
G00 X119.664 Y129.145
G00 X119.632 Y129.168
G00 X119.568 Y129.213
G00 X119.535 Y129.234
G00 X119.502 Y129.256
G00 X119.467 Y129.276
G00 X119.396 Y129.316
G00 X119.360 Y129.336
G00 X119.325 Y129.353
G00 X119.291 Y129.370
G00 X119.223 Y129.400
G00 X119.190 Y129.415
G00 X119.153 Y129.430
G00 X119.114 Y129.444
G00 X119.036 Y129.471
G00 X118.998 Y129.483
G00 X118.960 Y129.494
G00 X118.922 Y129.504
G00 X118.846 Y129.523
G00 X118.807 Y129.531
G00 X118.769 Y129.539
G00 X118.710 Y129.550
G00 X117.483 Y129.733
G00 X117.423 Y129.741
G00 X117.354 Y129.748
G00 X117.307 Y129.752
G00 X117.269 Y129.754
G00 X117.214 Y129.756
G00 X117.186 Y129.756
G00 X117.146 Y129.756
G00 X117.105 Y129.756
G00 X117.022 Y129.751
G00 X116.980 Y129.748
G00 X116.941 Y129.744
G00 X116.904 Y129.740
G00 X116.830 Y129.730
G00 X116.792 Y129.723
G00 X116.753 Y129.716
G00 X116.716 Y129.708
G00 X116.640 Y129.691
G00 X116.602 Y129.681
G00 X116.564 Y129.670
G00 X116.526 Y129.659
G00 X116.452 Y129.633
G00 X116.415 Y129.621
G00 X116.378 Y129.607
G00 X116.340 Y129.591
G00 X116.265 Y129.557
G00 X116.226 Y129.540
G00 X116.191 Y129.522
G00 X116.156 Y129.504
G00 X116.090 Y129.467
G00 X116.059 Y129.448
G00 X116.025 Y129.427
G00 X115.992 Y129.406
G00 X115.926 Y129.361
G00 X115.893 Y129.337
G00 X115.861 Y129.313
G00 X115.831 Y129.290
G00 X115.771 Y129.240
G00 X115.741 Y129.214
G00 X115.712 Y129.187
G00 X115.681 Y129.159
G00 X115.624 Y129.101
G00 X115.597 Y129.073
G00 X115.571 Y129.044
G00 X115.546 Y129.016
G00 X115.498 Y128.958
G00 X115.474 Y128.928
G00 X115.450 Y128.897
G00 X115.425 Y128.863
G00 X115.379 Y128.795
G00 X115.357 Y128.762
G00 X115.336 Y128.728
G00 X115.317 Y128.696
G00 X115.278 Y128.626
G00 X115.259 Y128.590
G00 X115.241 Y128.555
G00 X115.224 Y128.520
G00 X115.194 Y128.452
G00 X115.180 Y128.419
G00 X115.166 Y128.383
G00 X115.144 Y128.323
G00 X114.681 Y126.959
G00 X114.662 Y126.901
G00 X114.645 Y126.844
G00 X114.635 Y126.805
G00 X114.616 Y126.725
G00 X114.607 Y126.684
G00 X114.600 Y126.645
G00 X114.593 Y126.605
G00 X114.582 Y126.527
G00 X114.578 Y126.488
G00 X114.574 Y126.449
G00 X114.572 Y126.411
G00 X114.568 Y126.336
G00 X114.567 Y126.299
G00 X114.567 Y126.259
G00 X114.567 Y126.199
G00 X114.633 Y124.685
G00 X114.633 Y92.393
G00 X114.660 Y80.380
G00 X114.662 Y80.308
G00 X114.664 Y80.267
G00 X114.668 Y80.206
G00 X114.671 Y80.176
G00 X114.675 Y80.137
G00 X114.680 Y80.094
G00 X114.686 Y80.055
G00 X114.696 Y80.000
G00 X114.700 Y79.972
G00 X114.708 Y79.933
G00 X114.721 Y79.878
G00 X115.640 Y76.235
G00 X115.661 Y76.161
G00 X115.684 Y76.086
G00 X115.703 Y76.032
G00 X115.719 Y75.989
G00 X115.740 Y75.937
G00 X115.751 Y75.911
G00 X115.766 Y75.875
G00 X115.784 Y75.839
G00 X115.819 Y75.768
G00 X115.837 Y75.733
G00 X115.856 Y75.699
G00 X115.887 Y75.648
G00 X117.799 Y72.559
G00 X117.840 Y72.497
G00 X117.881 Y72.438
G00 X117.907 Y72.401
G00 X117.935 Y72.365
G00 X117.970 Y72.321
G00 X117.988 Y72.299
G00 X118.014 Y72.269
G00 X118.042 Y72.239
G00 X118.098 Y72.180
G00 X118.126 Y72.152
G00 X118.155 Y72.124
G00 X118.196 Y72.086
G00 X120.939 Y69.687
G00 X120.992 Y69.644
G00 X121.044 Y69.603
G00 X121.076 Y69.579
G00 X121.141 Y69.532
G00 X121.173 Y69.510
G00 X121.207 Y69.488
G00 X121.243 Y69.466
G00 X121.280 Y69.444
G00 X121.329 Y69.417
G00 X121.388 Y69.386
G00 X121.437 Y69.362
G00 X124.846 Y67.791
G00 X124.892 Y67.771
G00 X124.941 Y67.751
G00 X124.980 Y67.736
G00 X125.056 Y67.708
G00 X125.094 Y67.696
G00 X125.132 Y67.684
G00 X125.169 Y67.673
G00 X125.247 Y67.654
G00 X125.287 Y67.644
G00 X125.326 Y67.636
G00 X125.361 Y67.629
G00 X125.432 Y67.618
G00 X125.469 Y67.612
G00 X125.508 Y67.607
G00 X125.575 Y67.602
G00 X131.358 Y67.198
G00 X131.409 Y67.196
G00 X131.455 Y67.195
G00 X161.244 Y67.193
G00 X166.452 Y67.020
G00 X166.528 Y67.019
G00 X166.603 Y67.020
G00 X166.677 Y67.025
G00 X171.873 Y67.456
G00 X171.937 Y67.463
G00 X171.999 Y67.471
G00 X172.041 Y67.477
G00 X172.086 Y67.485
G00 X172.140 Y67.496
G00 X172.206 Y67.511
G00 X172.242 Y67.520
G00 X172.313 Y67.540
G00 X172.349 Y67.552
G00 X172.387 Y67.564
G00 X172.446 Y67.584
G00 X175.396 Y68.719
G00 X175.461 Y68.746
G00 X175.498 Y68.762
G00 X175.562 Y68.791
G00 X175.593 Y68.807
G00 X175.628 Y68.825
G00 X175.663 Y68.844
G00 X175.731 Y68.883
G00 X175.763 Y68.903
G00 X175.797 Y68.924
G00 X175.843 Y68.955
G00 X178.382 Y70.743
G00 X178.447 Y70.791
G00 X178.475 Y70.813
G00 X178.526 Y70.855
G00 X178.553 Y70.877
G00 X178.582 Y70.903
G00 X178.612 Y70.930
G00 X178.668 Y70.985
G00 X178.694 Y71.012
G00 X178.721 Y71.041
G00 X178.763 Y71.086
G00 X180.781 Y73.444
G00 X180.811 Y73.480
G00 X180.841 Y73.517
G00 X180.861 Y73.544
G00 X180.900 Y73.598
G00 X180.920 Y73.626
G00 X180.942 Y73.658
G00 X180.964 Y73.693
G00 X181.005 Y73.761
G00 X181.025 Y73.795
G00 X181.044 Y73.830
G00 X181.070 Y73.881
G00 X182.456 Y76.723
G00 X182.480 Y76.773
G00 X182.496 Y76.809
G00 X182.521 Y76.870
G00 X182.533 Y76.901
G00 X182.547 Y76.938
G00 X182.560 Y76.975
G00 X182.583 Y77.048
G00 X182.593 Y77.083
G00 X182.604 Y77.121
G00 X182.613 Y77.160
G00 X182.630 Y77.239
G00 X182.639 Y77.278
G00 X182.645 Y77.317
G00 X182.654 Y77.373
G00 X183.464 Y83.817
G00 X183.472 Y83.893
G00 X183.474 Y83.930
G00 X183.478 Y83.999
G00 X183.480 Y84.034
G00 X183.480 Y84.074
G00 X183.480 Y84.131
G00 X183.286 Y90.665
G00 X183.286 Y115.770
G00 X183.285 Y115.839
G00 X183.284 Y115.869
G00 X182.806 Y124.114
G00 X182.800 Y124.188
G00 X182.793 Y124.255
G00 X182.788 Y124.298
G00 X182.781 Y124.342
G00 X182.770 Y124.396
G00 X182.765 Y124.424
G00 X182.757 Y124.462
G00 X182.747 Y124.501
G00 X182.727 Y124.578
G00 X182.716 Y124.614
G00 X182.704 Y124.652
G00 X182.687 Y124.707
G00 X181.338 Y128.386
G00 X181.322 Y128.427
G00 X181.307 Y128.467
G00 X181.294 Y128.497
G00 X181.266 Y128.558
G00 X181.251 Y128.589
G00 X181.234 Y128.624
G00 X181.215 Y128.659
G00 X181.178 Y128.725
G00 X181.160 Y128.757
G00 X181.139 Y128.790
G00 X181.118 Y128.823
G00 X181.073 Y128.889
G00 X181.049 Y128.922
G00 X181.025 Y128.954
G00 X180.989 Y129.001
G00 X178.237 Y132.317
G00 X178.203 Y132.357
G00 X178.175 Y132.388
G00 X178.154 Y132.410
G00 X178.110 Y132.456
G00 X178.087 Y132.479
G00 X178.058 Y132.506
G00 X178.029 Y132.533
G00 X177.970 Y132.585
G00 X177.940 Y132.610
G00 X177.909 Y132.634
G00 X177.878 Y132.658
G00 X177.815 Y132.704
G00 X177.783 Y132.726
G00 X177.750 Y132.748
G00 X177.700 Y132.780
G00 X174.656 Y134.586
G00 X174.587 Y134.624
G00 X174.520 Y134.659
G00 X174.474 Y134.681
G00 X174.435 Y134.699
G00 X174.384 Y134.721
G00 X174.358 Y134.732
G00 X174.321 Y134.746
G00 X174.283 Y134.760
G00 X174.210 Y134.785
G00 X174.174 Y134.795
G00 X174.137 Y134.807
G00 X174.079 Y134.822
G00 X170.713 Y135.623
G00 X170.639 Y135.638
G00 X170.563 Y135.652
G00 X170.516 Y135.660
G00 X170.478 Y135.665
G00 X170.422 Y135.671
G00 X170.393 Y135.674
G00 X170.354 Y135.676
G00 X170.288 Y135.680
G00 X166.962 Y135.758
G00 X166.891 Y135.769
G00 X166.838 Y135.777
G00 X166.784 Y135.783
G00 X166.747 Y135.786
G00 X166.671 Y135.791
G00 X166.633 Y135.793
G00 X166.594 Y135.794
G00 X166.534 Y135.794
G00 X165.987 Y135.781
G00 X163.260 Y135.846
G00 X126.265 Y135.846
G00 X124.574 Y135.900
G00 X124.516 Y135.902
G00 X124.482 Y135.902
G00 X124.420 Y135.900
G00 X124.387 Y135.898
G00 X124.347 Y135.896
G00 X124.306 Y135.892
G00 X124.228 Y135.883
G00 X124.190 Y135.878
G00 X124.151 Y135.872
G00 X124.114 Y135.865
G00 X124.038 Y135.850
G00 X123.999 Y135.841
G00 X123.961 Y135.831
G00 X123.922 Y135.821
G00 X123.844 Y135.797
G00 X123.805 Y135.784
G00 X123.768 Y135.771
G00 X123.712 Y135.750
G00 X122.225 Y135.145
G00 X122.175 Y135.123
G00 X122.119 Y135.098
G00 X122.082 Y135.080
G00 X122.010 Y135.043
G00 X121.975 Y135.023
G00 X121.941 Y135.003
G00 X121.907 Y134.983
G00 X121.840 Y134.940
G00 X121.807 Y134.917
G00 X121.775 Y134.894
G00 X121.744 Y134.872
G00 X121.684 Y134.825
G00 X121.655 Y134.801
G00 X121.625 Y134.776
G00 X121.595 Y134.749
G00 X121.536 Y134.693
G00 X121.506 Y134.665
G00 X121.479 Y134.636
G00 X121.453 Y134.608
G00 X121.403 Y134.551
G00 X121.379 Y134.523
G00 X121.355 Y134.492
G00 X121.330 Y134.461
G00 X121.282 Y134.395
G00 X121.257 Y134.361
G00 X121.236 Y134.327
G00 X121.213 Y134.292
G00 X121.172 Y134.223
G00 X121.154 Y134.190
G00 X121.135 Y134.155
G00 X121.118 Y134.121
G00 X121.084 Y134.052
G00 X121.068 Y134.016
G00 X121.053 Y133.979
G00 X121.038 Y133.942
G00 X121.010 Y133.867
G00 X120.997 Y133.830
G00 X120.985 Y133.792
G00 X120.974 Y133.755
G00 X120.954 Y133.680
G00 X120.944 Y133.643
G00 X120.936 Y133.604
G00 X120.929 Y133.567
G00 X120.916 Y133.492
G00 X120.910 Y133.454
G00 X120.905 Y133.415
G00 X120.901 Y133.373
G00 X120.894 Y133.290
G00 X120.891 Y133.248
G00 X120.890 Y133.209
G00 X120.890 Y133.170
G00 X120.891 Y133.091
G00 X120.892 Y133.051
G00 X120.895 Y133.012
G00 X120.897 Y132.974
G00 X120.905 Y132.899
G00 X120.910 Y132.862
G00 X120.916 Y132.823
G00 X120.926 Y132.762
G00 X121.166 Y131.555
G00 X121.176 Y131.509
G00 X121.187 Y131.460
G00 X121.196 Y131.424
G00 X121.217 Y131.353
G00 X121.227 Y131.319
G00 X121.239 Y131.282
G00 X121.253 Y131.244
G00 X121.281 Y131.170
G00 X121.296 Y131.132
G00 X121.312 Y131.096
G00 X121.328 Y131.061
G00 X121.363 Y130.991
G00 X121.381 Y130.957
G00 X121.400 Y130.922
G00 X121.420 Y130.888
G00 X121.461 Y130.821
G00 X121.483 Y130.786
G00 X121.505 Y130.753
G00 X121.528 Y130.721
G00 X121.575 Y130.658
G00 X121.600 Y130.627
G00 X121.624 Y130.596
G00 X121.664 Y130.551
G00 X122.555 Y129.560
G00 X122.604 Y129.508
G00 X122.625 Y129.486
G00 X127.970 Y124.206
G00 X146.256 Y106.064
G00 X150.913 Y101.444
G00 X151.716 Y100.541
G00 X151.764 Y100.489
G00 X151.813 Y100.439
G00 X151.847 Y100.407
G00 X151.879 Y100.376
G00 X151.921 Y100.339
G00 X151.943 Y100.320
G00 X151.974 Y100.296
G00 X152.006 Y100.270
G00 X152.072 Y100.221
G00 X152.106 Y100.198
G00 X152.138 Y100.176
G00 X152.171 Y100.155
G00 X152.237 Y100.115
G00 X152.269 Y100.096
G00 X152.304 Y100.077
G00 X152.356 Y100.049
G00 X153.456 Y99.510
G00 X153.482 Y99.497
G00 X153.535 Y99.474
G00 X153.561 Y99.463
G00 X153.615 Y99.441
G00 X153.673 Y99.418
G00 X153.719 Y99.402
G00 X153.771 Y99.385
G00 X153.798 Y99.377
G00 X153.837 Y99.367
G00 X153.875 Y99.356
G00 X153.950 Y99.339
G00 X153.988 Y99.331
G00 X154.026 Y99.324
G00 X154.066 Y99.317
G00 X154.144 Y99.306
G00 X154.183 Y99.302
G00 X154.223 Y99.298
G00 X154.262 Y99.296
G00 X154.342 Y99.292
G00 X154.381 Y99.291
G00 X154.420 Y99.291
G00 X154.460 Y99.292
G00 X154.538 Y99.296
G00 X154.579 Y99.298
G00 X154.618 Y99.302
G00 X154.656 Y99.306
G00 X154.735 Y99.317
G00 X154.774 Y99.324
G00 X154.814 Y99.331
G00 X154.853 Y99.339
G00 X154.932 Y99.358
G00 X154.972 Y99.369
G00 X155.010 Y99.379
G00 X155.046 Y99.391
G00 X155.119 Y99.415
G00 X155.154 Y99.428
G00 X155.190 Y99.442
G00 X155.225 Y99.456
G00 X155.294 Y99.487
G00 X155.330 Y99.503
G00 X155.366 Y99.520
G00 X155.403 Y99.540
G00 X155.474 Y99.579
G00 X155.508 Y99.599
G00 X155.541 Y99.620
G00 X155.574 Y99.642
G00 X155.640 Y99.687
G00 X156.123 Y98.978
G00 X156.172 Y99.012
G00 X156.221 Y99.049
G00 X156.281 Y99.095
G00 X157.002 Y99.691
G00 X157.078 Y99.756
G00 X157.155 Y99.828
G00 X157.204 Y99.875
G00 X157.248 Y99.919
G00 X157.301 Y99.975
G00 X157.332 Y100.008
G00 X157.366 Y100.048
G00 X157.404 Y100.094
G00 X157.466 Y100.170
G00 X157.501 Y100.217
G00 X157.536 Y100.265
G00 X157.570 Y100.315
G00 X157.626 Y100.400
G00 X157.659 Y100.453
G00 X157.687 Y100.501
G00 X157.715 Y100.550
G00 X157.762 Y100.637
G00 X157.788 Y100.689
G00 X157.813 Y100.742
G00 X157.837 Y100.794
G00 X157.876 Y100.889
G00 X157.899 Y100.947
G00 X157.919 Y101.000
G00 X157.937 Y101.054
G00 X157.967 Y101.149
G00 X157.984 Y101.207
G00 X158.000 Y101.267
G00 X158.014 Y101.328
G00 X158.035 Y101.425
G00 X158.046 Y101.484
G00 X158.055 Y101.539
G00 X158.066 Y101.608
G00 X158.185 Y102.608
G00 X158.194 Y102.706
G00 X158.201 Y102.807
G00 X158.202 Y102.836
G00 X158.204 Y102.912
G00 X158.205 Y107.764
G00 X158.204 Y107.812
G00 X158.048 Y112.351
G00 X158.043 Y112.443
G00 X158.036 Y112.533
G00 X158.029 Y112.601
G00 X158.021 Y112.660
G00 X158.009 Y112.738
G00 X158.002 Y112.782
G00 X157.992 Y112.832
G00 X157.979 Y112.894
G00 X157.955 Y112.994
G00 X157.939 Y113.053
G00 X157.922 Y113.110
G00 X157.907 Y113.159
G00 X157.878 Y113.248
G00 X157.859 Y113.301
G00 X157.838 Y113.355
G00 X157.814 Y113.412
G00 X157.772 Y113.508
G00 X157.744 Y113.566
G00 X157.719 Y113.618
G00 X157.691 Y113.670
G00 X157.643 Y113.755
G00 X157.613 Y113.805
G00 X157.582 Y113.855
G00 X157.551 Y113.904
G00 X157.494 Y113.986
G00 X157.460 Y114.034
G00 X157.423 Y114.083
G00 X157.377 Y114.141
G00 X154.942 Y117.055
G00 X154.887 Y117.118
G00 X154.829 Y117.182
G00 X154.765 Y117.248
G00 X149.987 Y121.897
G00 X149.997 Y121.897
G00 X150.027 Y121.896
G00 X165.722 Y121.895
G00 X168.678 Y121.819
G00 X169.088 Y121.674
G00 X169.147 Y121.610
G00 X169.510 Y119.288
G00 X169.339 Y115.922
G00 X169.336 Y115.851
G00 X169.335 Y115.803
G00 X169.335 Y84.868
G00 X169.348 Y82.336
G00 X168.886 Y81.134
G00 X168.525 Y80.946
G00 X166.752 Y80.768
G00 X162.065 Y80.982
G00 X161.984 Y80.983
G00 X135.990 Y80.984
G00 X135.934 Y80.983
G00 X130.920 Y80.807
G00 X129.265 Y81.077
G00 X128.663 Y81.505
G00 X128.487 Y81.973
G00 X128.386 Y83.494
G00 X128.581 Y87.443
G00 X128.583 Y87.514
G00 X128.584 Y100.682
G00 X129.371 Y99.747
G00 X129.403 Y99.711
G00 X129.453 Y99.656
G00 X129.483 Y99.623
G00 X129.533 Y99.572
G00 X129.577 Y99.527
G00 X129.600 Y99.505
G00 X129.635 Y99.472
G00 X129.693 Y99.421
G00 X129.760 Y99.363
G00 X129.807 Y99.326
G00 X129.856 Y99.288
G00 X129.918 Y99.242
G00 X129.952 Y99.218
G00 X129.999 Y99.185
G00 X130.049 Y99.154
G00 X130.125 Y99.106
G00 X130.171 Y99.079
G00 X130.223 Y99.049
G00 X130.280 Y99.019
G00 X130.372 Y98.973
G00 X130.428 Y98.947
G00 X130.456 Y98.935
G00 X131.834 Y97.322
G00 X133.720 Y95.162
G00 X133.793 Y95.083
G00 X133.826 Y95.049
G00 X133.878 Y94.995
G00 X133.932 Y94.943
G00 X133.983 Y94.897
G00 X134.040 Y94.848
G00 X134.071 Y94.821
G00 X134.115 Y94.785
G00 X134.178 Y94.736
G00 X136.467 Y93.072
G00 X136.531 Y93.027
G00 X136.575 Y92.998
G00 X136.639 Y92.957
G00 X136.676 Y92.934
G00 X136.721 Y92.907
G00 X136.769 Y92.880
G00 X136.852 Y92.836
G00 X136.902 Y92.810
G00 X136.958 Y92.783
G00 X137.017 Y92.756
G00 X137.113 Y92.716
G00 X137.171 Y92.693
G00 X137.226 Y92.673
G00 X137.280 Y92.655
G00 X137.368 Y92.627
G00 X137.420 Y92.611
G00 X137.479 Y92.595
G00 X137.537 Y92.581
G00 X137.635 Y92.559
G00 X137.694 Y92.548
G00 X137.753 Y92.537
G00 X137.827 Y92.527
G00 X140.794 Y92.165
G00 X140.864 Y92.158
G00 X140.922 Y92.154
G00 X140.971 Y92.150
G00 X141.057 Y92.146
G00 X141.109 Y92.144
G00 X141.163 Y92.144
G00 X141.237 Y92.145
G00 X144.166 Y92.272
G00 X146.863 Y92.172
G00 X146.938 Y92.170
G00 X147.018 Y92.170
G00 X147.080 Y92.172
G00 X147.178 Y92.177
G00 X147.237 Y92.181
G00 X147.297 Y92.187
G00 X147.370 Y92.196
G00 X148.906 Y92.422
G00 X148.967 Y92.431
G00 X149.032 Y92.443
G00 X149.087 Y92.454
G00 X149.181 Y92.475
G00 X149.237 Y92.490
G00 X149.290 Y92.504
G00 X149.339 Y92.519
G00 X149.431 Y92.548
G00 X149.486 Y92.567
G00 X149.538 Y92.586
G00 X149.596 Y92.609
G00 X149.691 Y92.650
G00 X149.747 Y92.675
G00 X149.802 Y92.702
G00 X149.850 Y92.726
G00 X149.941 Y92.774
G00 X149.994 Y92.806
G00 X150.045 Y92.836
G00 X150.095 Y92.868
G00 X150.174 Y92.920
G00 X150.220 Y92.953
G00 X150.267 Y92.987
G00 X150.313 Y93.022
G00 X150.389 Y93.084
G00 X150.435 Y93.122
G00 X150.479 Y93.162
G00 X150.537 Y93.214
G00 X151.297 Y93.958
G00 X151.354 Y94.016
G00 X151.391 Y94.054
G00 X151.442 Y94.111
G00 X151.472 Y94.146
G00 X151.505 Y94.184
G00 X151.543 Y94.230
G00 X151.602 Y94.307
G00 X151.637 Y94.354
G00 X151.672 Y94.405
G00 X151.706 Y94.454
G00 X151.759 Y94.539
G00 X151.790 Y94.591
G00 X151.819 Y94.642
G00 X151.848 Y94.694
G00 X151.893 Y94.783
G00 X151.919 Y94.837
G00 X151.943 Y94.890
G00 X151.966 Y94.943
G00 X152.002 Y95.033
G00 X152.022 Y95.087
G00 X152.042 Y95.144
G00 X152.061 Y95.203
G00 X152.088 Y95.295
G00 X152.103 Y95.349
G00 X152.117 Y95.405
G00 X152.130 Y95.463
G00 X152.150 Y95.561
G00 X152.160 Y95.620
G00 X152.170 Y95.681
G00 X152.178 Y95.743
G00 X152.187 Y95.840
G00 X152.192 Y95.897
G00 X152.196 Y95.957
G00 X152.198 Y96.016
G00 X152.199 Y96.115
G00 X152.198 Y96.174
G00 X152.196 Y96.233
G00 X152.193 Y96.292
G00 X152.185 Y96.390
G00 X152.179 Y96.449
G00 X152.172 Y96.510
G00 X152.163 Y96.569
G00 X152.146 Y96.661
G00 X152.136 Y96.716
G00 X152.123 Y96.773
G00 X152.109 Y96.830
G00 X152.083 Y96.928
G00 X152.066 Y96.987
G00 X152.048 Y97.046
G00 X152.029 Y97.101
G00 X151.995 Y97.190
G00 X151.975 Y97.242
G00 X151.952 Y97.296
G00 X151.921 Y97.367
G00 X151.428 Y98.387
G00 X151.407 Y98.431
G00 X151.375 Y98.490
G00 X151.325 Y98.580
G00 X151.290 Y98.639
G00 X151.275 Y98.665
G00 X151.248 Y98.708
G00 X151.202 Y98.777
G00 X151.151 Y98.849
G00 X151.112 Y98.901
G00 X151.051 Y98.978
G00 X151.013 Y99.023
G00 X150.975 Y99.068
G00 X150.933 Y99.114
G00 X150.864 Y99.187
G00 X150.821 Y99.229
G00 X150.779 Y99.270
G00 X150.726 Y99.318
G00 X149.908 Y100.030
G00 X145.358 Y104.635
G00 X126.749 Y123.331
G00 X121.451 Y128.564
G00 X120.538 Y129.513
G00 X120.479 Y129.572
G00 X120.415 Y129.633
G00 X120.370 Y129.674
G00 X120.320 Y129.718
G00 X120.260 Y129.767
G00 X120.191 Y129.821
G00 X120.139 Y129.860
G00 X120.058 Y129.917
G00 X120.008 Y129.950
G00 X119.959 Y129.981
G00 X119.906 Y130.013
G00 X119.818 Y130.062
G00 X119.766 Y130.091
G00 X119.711 Y130.119
G00 X119.663 Y130.143
G00 X119.577 Y130.182
G00 X119.524 Y130.204
G00 X119.472 Y130.225
G00 X119.414 Y130.247
G00 X119.317 Y130.281
G00 X119.257 Y130.300
G00 X119.201 Y130.317
G00 X119.145 Y130.333
G00 X119.051 Y130.356
G00 X118.994 Y130.369
G00 X118.934 Y130.381
G00 X118.857 Y130.394
G00 X117.610 Y130.581
G00 X117.534 Y130.591
G00 X117.445 Y130.601
G00 X117.376 Y130.607
G00 X117.315 Y130.610
G00 X117.241 Y130.613
G00 X117.196 Y130.614
G00 X117.146 Y130.614
G00 X117.086 Y130.612
G00 X116.981 Y130.608
G00 X116.917 Y130.603
G00 X116.858 Y130.598
G00 X116.803 Y130.592
G00 X116.710 Y130.579
G00 X116.654 Y130.570
G00 X116.595 Y130.559
G00 X116.540 Y130.548
G00 X116.446 Y130.526
G00 X116.389 Y130.512
G00 X116.331 Y130.496
G00 X116.273 Y130.477
G00 X116.180 Y130.447
G00 X116.126 Y130.428
G00 X116.070 Y130.407
G00 X116.013 Y130.383
G00 X115.919 Y130.342
G00 X115.864 Y130.316
G00 X115.808 Y130.289
G00 X115.754 Y130.261
G00 X115.672 Y130.215
G00 X115.623 Y130.187
G00 X115.576 Y130.157
G00 X115.526 Y130.125
G00 X115.443 Y130.069
G00 X115.394 Y130.035
G00 X115.345 Y129.999
G00 X115.300 Y129.964
G00 X115.225 Y129.901
G00 X115.181 Y129.863
G00 X115.135 Y129.823
G00 X115.090 Y129.780
G00 X115.017 Y129.708
G00 X114.975 Y129.663
G00 X114.937 Y129.622
G00 X114.901 Y129.581
G00 X114.840 Y129.508
G00 X114.804 Y129.464
G00 X114.768 Y129.417
G00 X114.730 Y129.365
G00 X114.673 Y129.281
G00 X114.639 Y129.230
G00 X114.608 Y129.181
G00 X114.580 Y129.134
G00 X114.530 Y129.046
G00 X114.502 Y128.993
G00 X114.474 Y128.938
G00 X114.448 Y128.884
G00 X114.411 Y128.801
G00 X114.390 Y128.751
G00 X114.369 Y128.699
G00 X114.340 Y128.622
G00 X113.868 Y127.235
G00 X113.845 Y127.161
G00 X113.822 Y127.084
G00 X113.806 Y127.025
G00 X113.781 Y126.923
G00 X113.769 Y126.862
G00 X113.757 Y126.803
G00 X113.747 Y126.741
G00 X113.733 Y126.645
G00 X113.726 Y126.588
G00 X113.721 Y126.528
G00 X113.717 Y126.473
G00 X113.712 Y126.378
G00 X113.710 Y126.320
G00 X113.710 Y126.263
G00 X113.710 Y126.189
G00 X113.775 Y124.665
G00 X113.775 Y92.393
G00 X113.803 Y80.378
G00 X113.804 Y80.291
G00 X113.807 Y80.225
G00 X113.813 Y80.145
G00 X113.816 Y80.103
G00 X113.822 Y80.046
G00 X113.829 Y79.989
G00 X113.838 Y79.930
G00 X113.851 Y79.855
G00 X113.858 Y79.816
G00 X113.869 Y79.759
G00 X113.885 Y79.687
G00 X114.809 Y76.026
G00 X114.836 Y75.930
G00 X114.866 Y75.830
G00 X114.891 Y75.756
G00 X114.915 Y75.691
G00 X114.944 Y75.616
G00 X114.960 Y75.579
G00 X114.982 Y75.528
G00 X115.008 Y75.473
G00 X115.052 Y75.386
G00 X115.078 Y75.334
G00 X115.108 Y75.280
G00 X115.147 Y75.213
G00 X117.070 Y72.107
G00 X117.123 Y72.026
G00 X117.176 Y71.949
G00 X117.211 Y71.900
G00 X117.252 Y71.845
G00 X117.303 Y71.783
G00 X117.329 Y71.750
G00 X117.366 Y71.707
G00 X117.410 Y71.659
G00 X117.477 Y71.588
G00 X117.518 Y71.547
G00 X117.562 Y71.505
G00 X117.617 Y71.454
G00 X120.375 Y69.042
G00 X120.442 Y68.985
G00 X120.510 Y68.931
G00 X120.563 Y68.891
G00 X120.643 Y68.834
G00 X120.691 Y68.800
G00 X120.742 Y68.768
G00 X120.790 Y68.738
G00 X120.845 Y68.705
G00 X120.914 Y68.667
G00 X120.992 Y68.626
G00 X121.061 Y68.592
G00 X124.487 Y67.013
G00 X124.546 Y66.987
G00 X124.610 Y66.960
G00 X124.671 Y66.936
G00 X124.767 Y66.901
G00 X124.825 Y66.881
G00 X124.879 Y66.865
G00 X124.933 Y66.849
G00 X125.032 Y66.823
G00 X125.093 Y66.809
G00 X125.152 Y66.796
G00 X125.204 Y66.787
G00 X125.293 Y66.772
G00 X125.347 Y66.763
G00 X125.406 Y66.756
G00 X125.493 Y66.748
G00 X131.298 Y66.343
G00 X131.363 Y66.339
G00 X131.427 Y66.337
G00 X161.226 Y66.336
G00 X166.423 Y66.162
G00 X166.522 Y66.162
G00 X166.620 Y66.163
G00 X166.721 Y66.168
G00 X171.945 Y66.602
G00 X172.027 Y66.610
G00 X172.109 Y66.620
G00 X172.162 Y66.628
G00 X172.235 Y66.640
G00 X172.311 Y66.656
G00 X172.397 Y66.675
G00 X172.454 Y66.689
G00 X172.547 Y66.715
G00 X172.602 Y66.732
G00 X172.656 Y66.750
G00 X172.731 Y66.776
G00 X175.703 Y67.919
G00 X175.782 Y67.951
G00 X175.842 Y67.976
G00 X175.924 Y68.014
G00 X175.973 Y68.039
G00 X176.023 Y68.064
G00 X176.076 Y68.093
G00 X176.160 Y68.141
G00 X176.209 Y68.170
G00 X176.258 Y68.202
G00 X176.317 Y68.241
G00 X178.875 Y70.042
G00 X178.956 Y70.101
G00 X179.001 Y70.136
G00 X179.067 Y70.189
G00 X179.108 Y70.224
G00 X179.150 Y70.261
G00 X179.195 Y70.301
G00 X179.265 Y70.369
G00 X179.307 Y70.412
G00 X179.345 Y70.453
G00 X179.397 Y70.509
G00 X181.432 Y72.886
G00 X181.471 Y72.932
G00 X181.510 Y72.982
G00 X181.544 Y73.026
G00 X181.592 Y73.092
G00 X181.621 Y73.131
G00 X181.654 Y73.180
G00 X181.687 Y73.232
G00 X181.739 Y73.318
G00 X181.770 Y73.371
G00 X181.797 Y73.420
G00 X181.830 Y73.484
G00 X183.227 Y76.347
G00 X183.255 Y76.405
G00 X183.281 Y76.464
G00 X183.314 Y76.542
G00 X183.332 Y76.589
G00 X183.352 Y76.641
G00 X183.371 Y76.697
G00 X183.400 Y76.788
G00 X183.416 Y76.842
G00 X183.431 Y76.897
G00 X183.445 Y76.955
G00 X183.467 Y77.053
G00 X183.480 Y77.113
G00 X183.490 Y77.171
G00 X183.501 Y77.241
G00 X184.315 Y83.711
G00 X184.325 Y83.806
G00 X184.330 Y83.863
G00 X184.335 Y83.952
G00 X184.337 Y84.004
G00 X184.338 Y84.062
G00 X184.337 Y84.137
G00 X184.143 Y90.678
G00 X184.143 Y115.770
G00 X184.142 Y115.854
G00 X184.140 Y115.900
G00 X183.663 Y124.164
G00 X183.655 Y124.260
G00 X183.645 Y124.349
G00 X183.639 Y124.403
G00 X183.635 Y124.431
G00 X183.628 Y124.475
G00 X183.614 Y124.550
G00 X183.606 Y124.591
G00 X183.595 Y124.643
G00 X183.581 Y124.702
G00 X183.556 Y124.797
G00 X183.540 Y124.854
G00 X183.523 Y124.908
G00 X183.501 Y124.975
G00 X182.143 Y128.681
G00 X182.122 Y128.736
G00 X182.103 Y128.785
G00 X182.082 Y128.834
G00 X182.048 Y128.911
