;PancakePainter v1.4.0 GCODE header start
;Originally generated @ Sun Dec 07 2025 18:29:38 GMT+0100 (CET)
;Settings used to generate this file:
;----------------------------------------
;botSpeed: 4620
;flattenResolution: 2
;lineEndPreShutoff: 21
;startWait: 197
;endWait: 250
;shadeChangeWait: 20
;useLineFill: false
;useShortest: true
;shapeFillWidth: 4.9
;fillSpacing: 17
;fillAngle: -39
;fillGroupThreshold: 13
;useColorSpeed: false
;botColorSpeed: 6600,5280,5280,3300
;----------------------------------------
W1 X42 Y210 L485 T0 ;Define Workspace of this file
G21 ;Set units to MM
G1 F4620 ;Set Speed
M107 ;Pump off
G4 P1000 ;Pause for 1000 milliseconds
M84 ;Motors off
G00 X1 Y1 ;Help homing
G28 X0 Y0 ;Home All Axis
;PancakePainter header complete
;Starting stroke path #1/3, segments: 24, length: 1708, color #1
G00 X263.7 Y90.752
M106 ;Pump on
G4 P197 ;Pause for 197 milliseconds
G00 X252.72 Y93.603
G00 X242.44 Y98.088
G00 X233.077 Y107.169
G00 X213.938 Y126.472
G00 X206.671 Y132.117
G00 X198.201 Y135.694
G00 X195.045 Y136.89
G00 X191.829 Y137.06
G00 X189.7 Y133.72
G00 X189.695 Y129.456
G00 X189.695 Y107.765
G00 X189.281 Y82.639
G00 X190.048 Y57.577
G00 X190.824 Y48.831
G00 X193.337 Y40.565
G00 X196.532 Y36.9
G00 X200.481 Y34.512
G00 X209.685 Y32.186
G00 X224.963 Y31.37
G00 X240.307 Y31.633
G00 X294.323 Y31.633
G00 X312.518 Y31.453
G00 X321.613 Y32.735
G00 X329.624 Y36.271
G00 X334.474 Y42.288
G00 X336.7 Y50.362
G00 X337.301 Y59.057
G00 X337.28 Y66.934
G00 X337.28 Y143.066
G00 X336.86 Y159.171
G00 X334.993 Y167.137
G00 X330.826 Y173.491
G00 X324.879 Y176.865
G00 X318.141 Y178.333
G00 X303.294 Y179.38
G00 X288.368 Y179.218
G00 X241.158 Y179.218
G00 X235.204 Y178.961
G00 X230.95 Y177.052
G00 X224.705 Y178.698
G00 X218.616 Y181.05
;Nearing path end, moving to preshutoff position
G00 X205.65 Y185.379
M107 ;Pump off
G00 X198.626 Y187.724
G4 P250 ;Pause for 250 milliseconds
;Completed path #1/3 on color #1
;Starting stroke path #2/3, segments: 3, length: 247, color #1
G00 X278.586 Y105.638
M106 ;Pump on
G4 P197 ;Pause for 197 milliseconds
G00 X275.496 Y116.908
G00 X273.51 Y122.615
G00 X270.812 Y127.329
G00 X259.765 Y138.786
G00 X247.877 Y149.787
G00 X237.81 Y161.893
G00 X234.292 Y168.849
;Nearing path end, moving to preshutoff position
G00 X234.118 Y169.507
M107 ;Pump off
G00 X232.226 Y176.666
G4 P250 ;Pause for 250 milliseconds
;Completed path #2/3 on color #1
;Starting fill path #3/3, segments: 842, length: 7416, color #1
G00 X312.187 Y31.218
M106 ;Pump on
G4 P197 ;Pause for 197 milliseconds
G00 X303.03 Y30.795
G00 X221.304 Y30.795
G00 X211.744 Y31.014
G00 X203.915 Y32.197
G00 X198.041 Y34.793
G00 X193.266 Y39.608
G00 X190.12 Y46.784
G00 X188.893 Y55.882
G00 X189.281 Y77.798
G00 X189.282 Y77.913
G00 X189.282 Y151.742
G00 X241.234 Y99.79
G00 X239.264 Y99.843
G00 X237.207 Y101.465
G00 X233.196 Y105.987
G00 X233.088 Y106.107
G00 X220.725 Y119.339
G00 X220.583 Y119.487
G00 X220.494 Y119.578
G00 X220.464 Y119.608
G00 X220.355 Y119.714
G00 X220.251 Y119.813
G00 X220.153 Y119.906
G00 X206.985 Y131.963
G00 X206.829 Y132.102
G00 X206.819 Y132.11
G00 X206.744 Y132.177
G00 X206.631 Y132.273
G00 X206.393 Y132.467
G00 X206.276 Y132.558
G00 X206.037 Y132.735
G00 X205.915 Y132.82
G00 X205.676 Y132.981
G00 X205.55 Y133.062
G00 X205.3 Y133.214
G00 X205.172 Y133.288
G00 X204.903 Y133.436
G00 X204.771 Y133.504
G00 X204.502 Y133.635
G00 X204.367 Y133.698
G00 X204.104 Y133.812
G00 X203.967 Y133.868
G00 X203.68 Y133.978
G00 X203.54 Y134.027
G00 X203.259 Y134.12
G00 X203.117 Y134.163
G00 X202.832 Y134.243
G00 X202.687 Y134.28
G00 X202.392 Y134.349
G00 X202.247 Y134.379
G00 X201.965 Y134.43
G00 X201.819 Y134.454
G00 X201.519 Y134.495
G00 X201.371 Y134.512
G00 X201.075 Y134.539
G00 X200.927 Y134.55
G00 X200.629 Y134.563
G00 X200.48 Y134.567
G00 X200.327 Y134.568
G00 X200.117 Y134.565
G00 X199.901 Y134.558
G00 X199.761 Y134.552
G00 X199.551 Y134.537
G00 X199.403 Y134.524
G00 X199.09 Y134.489
G00 X198.942 Y134.469
G00 X198.66 Y134.424
G00 X198.513 Y134.398
G00 X198.216 Y134.337
G00 X198.071 Y134.304
G00 X197.792 Y134.233
G00 X197.648 Y134.194
G00 X197.36 Y134.108
G00 X197.219 Y134.061
G00 X196.94 Y133.963
G00 X196.801 Y133.911
G00 X196.517 Y133.796
G00 X196.38 Y133.737
G00 X196.12 Y133.618
G00 X195.986 Y133.553
G00 X195.719 Y133.416
G00 X195.589 Y133.345
G00 X195.329 Y133.196
G00 X195.202 Y133.119
G00 X194.955 Y132.962
G00 X194.831 Y132.88
G00 X194.742 Y132.82
G00 X194.571 Y132.697
G00 X194.451 Y132.609
G00 X194.233 Y132.44
G00 X194.117 Y132.346
G00 X193.892 Y132.156
G00 X193.78 Y132.058
G00 X193.556 Y131.85
G00 X193.45 Y131.747
G00 X193.236 Y131.529
G00 X193.134 Y131.421
G00 X192.944 Y131.209
G00 X192.848 Y131.096
G00 X192.655 Y130.861
G00 X192.563 Y130.744
G00 X192.384 Y130.503
G00 X192.298 Y130.382
G00 X192.136 Y130.142
G00 X192.056 Y130.017
G00 X191.902 Y129.768
G00 X191.827 Y129.639
G00 X191.676 Y129.365
G00 X191.607 Y129.233
G00 X191.478 Y128.97
G00 X191.415 Y128.836
G00 X191.298 Y128.567
G00 X191.241 Y128.43
G00 X191.136 Y128.157
G00 X191.086 Y128.017
G00 X190.989 Y127.727
G00 X190.946 Y127.585
G00 X190.865 Y127.3
G00 X190.827 Y127.156
G00 X190.761 Y126.872
G00 X190.73 Y126.726
G00 X190.674 Y126.429
G00 X190.65 Y126.282
G00 X190.608 Y125.986
G00 X190.591 Y125.838
G00 X190.563 Y125.541
G00 X190.553 Y125.393
G00 X190.539 Y125.11
G00 X190.535 Y124.961
G00 X190.533 Y124.783
G00 X190.533 Y68.779
G00 X190.048 Y57.196
G00 X190.044 Y57.074
G00 X190.041 Y56.957
G00 X190.04 Y56.701
G00 X190.042 Y56.553
G00 X190.054 Y56.255
G00 X190.063 Y56.107
G00 X190.074 Y55.954
G00 X190.585 Y49.966
G00 X190.6 Y49.812
G00 X190.617 Y49.654
G00 X190.63 Y49.543
G00 X190.66 Y49.335
G00 X190.683 Y49.188
G00 X190.707 Y49.052
G00 X190.715 Y49.005
G00 X190.754 Y48.807
G00 X190.796 Y48.608
G00 X190.825 Y48.479
G00 X190.877 Y48.275
G00 X190.915 Y48.132
G00 X191.003 Y47.834
G00 X191.048 Y47.692
G00 X191.145 Y47.412
G00 X191.197 Y47.273
G00 X191.249 Y47.137
G00 X193.257 Y42.08
G00 X193.333 Y41.895
G00 X193.436 Y41.66
G00 X193.498 Y41.525
G00 X193.629 Y41.256
G00 X193.698 Y41.124
G00 X193.841 Y40.862
G00 X193.916 Y40.733
G00 X194.065 Y40.487
G00 X194.145 Y40.361
G00 X194.313 Y40.111
G00 X194.398 Y39.99
G00 X194.487 Y39.867
G00 X194.499 Y39.85
G00 X194.614 Y39.7
G00 X194.729 Y39.553
G00 X194.809 Y39.454
G00 X194.945 Y39.293
G00 X195.043 Y39.181
G00 X195.234 Y38.971
G00 X195.337 Y38.863
G00 X195.42 Y38.777
G00 X195.57 Y38.63
G00 X195.695 Y38.512
G00 X195.919 Y38.31
G00 X196.031 Y38.212
G00 X196.266 Y38.019
G00 X196.383 Y37.927
G00 X196.501 Y37.836
G00 X196.535 Y37.811
G00 X196.636 Y37.736
G00 X196.739 Y37.662
G00 X196.844 Y37.588
G00 X202.071 Y33.977
G00 X202.165 Y33.913
G00 X202.265 Y33.847
G00 X202.422 Y33.746
G00 X202.549 Y33.666
G00 X202.796 Y33.519
G00 X202.925 Y33.446
G00 X203.195 Y33.302
G00 X203.328 Y33.235
G00 X203.598 Y33.106
G00 X203.734 Y33.045
G00 X204.011 Y32.928
G00 X204.149 Y32.874
G00 X204.423 Y32.772
G00 X204.564 Y32.724
G00 X204.842 Y32.636
G00 X204.984 Y32.594
G00 X205.284 Y32.513
G00 X205.429 Y32.478
G00 X205.71 Y32.416
G00 X205.856 Y32.387
G00 X206.004 Y32.359
G00 X206.03 Y32.355
G00 X206.159 Y32.334
G00 X213.608 Y31.197
G00 X213.736 Y31.178
G00 X213.866 Y31.161
G00 X214.143 Y31.13
G00 X214.291 Y31.117
G00 X214.589 Y31.097
G00 X214.738 Y31.091
G00 X215.035 Y31.085
G00 X215.184 Y31.085
G00 X215.335 Y31.087
G00 X223.183 Y31.287
G00 X223.346 Y31.293
G00 X229.918 Y31.62
G00 X298.391 Y31.62
G00 X312.074 Y31.22
G00 X312.187 Y31.218
G00 X321.732 Y25.121
G00 X303.184 Y24.265
G00 X221.228 Y24.265
G00 X211.178 Y24.495
G00 X202.076 Y25.87
G00 X194.272 Y29.319
G00 X187.773 Y35.873
G00 X183.771 Y45.002
G00 X182.355 Y55.501
G00 X182.752 Y77.913
G00 X182.752 Y167.308
G00 X184.446 Y165.813
G00 X255.787 Y94.472
G00 X256.929 Y93.167
G00 X244.632 Y93.167
G00 X236.922 Y93.373
G00 X232.706 Y96.698
G00 X228.31 Y101.654
G00 X228.254 Y101.717
G00 X215.954 Y114.881
G00 X215.877 Y114.96
G00 X215.847 Y114.99
G00 X215.743 Y115.089
G00 X202.575 Y127.147
G00 X202.542 Y127.176
G00 X202.506 Y127.209
G00 X202.393 Y127.306
G00 X202.275 Y127.397
G00 X202.154 Y127.482
G00 X202.028 Y127.563
G00 X201.9 Y127.637
G00 X201.768 Y127.706
G00 X201.633 Y127.768
G00 X201.495 Y127.824
G00 X201.355 Y127.874
G00 X201.213 Y127.917
G00 X201.069 Y127.954
G00 X200.923 Y127.984
G00 X200.777 Y128.008
G00 X200.629 Y128.025
G00 X200.48 Y128.035
G00 X200.332 Y128.038
G00 X200.328 Y128.038
G00 X200.116 Y128.031
G00 X199.967 Y128.018
G00 X199.82 Y127.998
G00 X199.674 Y127.972
G00 X199.529 Y127.939
G00 X199.385 Y127.899
G00 X199.244 Y127.853
G00 X199.105 Y127.801
G00 X198.969 Y127.742
G00 X198.835 Y127.677
G00 X198.704 Y127.606
G00 X198.577 Y127.529
G00 X198.453 Y127.447
G00 X198.334 Y127.358
G00 X198.218 Y127.265
G00 X198.107 Y127.166
G00 X198 Y127.063
G00 X197.898 Y126.954
G00 X197.802 Y126.842
G00 X197.71 Y126.724
G00 X197.624 Y126.603
G00 X197.543 Y126.478
G00 X197.468 Y126.35
G00 X197.4 Y126.218
G00 X197.337 Y126.083
G00 X197.281 Y125.946
G00 X197.23 Y125.806
G00 X197.186 Y125.664
G00 X197.149 Y125.52
G00 X197.118 Y125.374
G00 X197.094 Y125.227
G00 X197.077 Y125.08
G00 X197.067 Y124.932
G00 X197.066 Y124.917
G00 X197.064 Y124.847
G00 X197.063 Y124.783
G00 X197.063 Y68.644
G00 X196.572 Y56.923
G00 X196.569 Y56.806
G00 X196.572 Y56.657
G00 X196.581 Y56.509
G00 X197.091 Y50.521
G00 X197.109 Y50.362
G00 X197.132 Y50.216
G00 X197.14 Y50.169
G00 X197.183 Y49.971
G00 X197.221 Y49.827
G00 X197.267 Y49.686
G00 X197.319 Y49.546
G00 X199.326 Y44.489
G00 X199.365 Y44.394
G00 X199.428 Y44.259
G00 X199.496 Y44.127
G00 X199.571 Y43.998
G00 X199.65 Y43.873
G00 X199.736 Y43.752
G00 X199.749 Y43.735
G00 X199.864 Y43.588
G00 X199.962 Y43.476
G00 X200.064 Y43.368
G00 X200.069 Y43.364
G00 X200.189 Y43.25
G00 X200.302 Y43.152
G00 X200.419 Y43.06
G00 X200.453 Y43.035
G00 X200.556 Y42.961
G00 X205.783 Y39.35
G00 X205.883 Y39.283
G00 X206.01 Y39.203
G00 X206.139 Y39.13
G00 X206.272 Y39.063
G00 X206.408 Y39.002
G00 X206.546 Y38.948
G00 X206.687 Y38.9
G00 X206.829 Y38.858
G00 X206.974 Y38.822
G00 X207.12 Y38.794
G00 X207.145 Y38.789
G00 X214.593 Y37.652
G00 X214.724 Y37.635
G00 X214.872 Y37.621
G00 X215.02 Y37.615
G00 X215.169 Y37.615
G00 X223.016 Y37.815
G00 X223.096 Y37.818
G00 X229.755 Y38.15
G00 X298.489 Y38.15
G00 X312.265 Y37.747
G00 X312.393 Y37.746
G00 X312.542 Y37.751
G00 X312.586 Y37.754
G00 X312.653 Y37.757
G00 X312.801 Y37.77
G00 X312.948 Y37.79
G00 X319.766 Y38.862
G00 X319.894 Y38.884
G00 X320.039 Y38.916
G00 X320.182 Y38.955
G00 X320.324 Y39.001
G00 X320.463 Y39.052
G00 X320.485 Y39.061
G00 X320.577 Y39.099
G00 X320.713 Y39.162
G00 X320.845 Y39.23
G00 X320.973 Y39.304
G00 X326.464 Y42.634
G00 X326.615 Y42.731
G00 X326.628 Y42.74
G00 X326.731 Y42.814
G00 X326.849 Y42.905
G00 X326.962 Y43.002
G00 X327.07 Y43.104
G00 X327.174 Y43.21
G00 X327.273 Y43.321
G00 X327.366 Y43.437
G00 X327.455 Y43.556
G00 X327.537 Y43.68
G00 X327.614 Y43.807
G00 X327.686 Y43.937
G00 X327.751 Y44.071
G00 X329.83 Y48.596
G00 X329.863 Y48.671
G00 X329.919 Y48.809
G00 X329.968 Y48.949
G00 X330.011 Y49.091
G00 X330.047 Y49.236
G00 X330.077 Y49.381
G00 X330.1 Y49.528
G00 X330.116 Y49.676
G00 X330.126 Y49.824
G00 X330.334 Y54.838
G00 X330.337 Y54.974
G00 X330.337 Y142.18
G00 X330.622 Y155.842
G00 X330.622 Y155.931
G00 X330.618 Y156.079
G00 X330.614 Y156.164
G00 X330.603 Y156.306
G00 X330.585 Y156.453
G00 X330.561 Y156.6
G00 X330.531 Y156.746
G00 X329.012 Y163.176
G00 X328.982 Y163.296
G00 X328.939 Y163.438
G00 X328.89 Y163.578
G00 X328.834 Y163.716
G00 X328.772 Y163.851
G00 X328.704 Y163.984
G00 X328.631 Y164.113
G00 X328.618 Y164.134
G00 X328.562 Y164.223
G00 X328.478 Y164.346
G00 X328.389 Y164.465
G00 X328.295 Y164.58
G00 X324.066 Y169.484
G00 X324.05 Y169.503
G00 X323.952 Y169.615
G00 X323.849 Y169.722
G00 X323.741 Y169.824
G00 X323.629 Y169.922
G00 X323.512 Y170.014
G00 X323.391 Y170.101
G00 X323.267 Y170.182
G00 X323.139 Y170.257
G00 X323.008 Y170.327
G00 X322.991 Y170.335
G00 X322.833 Y170.409
G00 X322.695 Y170.465
G00 X322.555 Y170.515
G00 X317.885 Y172.059
G00 X317.733 Y172.105
G00 X317.589 Y172.142
G00 X317.443 Y172.172
G00 X317.297 Y172.195
G00 X317.149 Y172.211
G00 X317.001 Y172.221
G00 X311.152 Y172.472
G00 X310.978 Y172.475
G00 X310.829 Y172.47
G00 X299.76 Y171.85
G00 X244.586 Y171.85
G00 X244.368 Y171.843
G00 X244.22 Y171.829
G00 X244.073 Y171.809
G00 X243.926 Y171.783
G00 X243.905 Y171.778
G00 X243.721 Y171.735
G00 X243.578 Y171.693
G00 X243.437 Y171.645
G00 X243.299 Y171.59
G00 X243.163 Y171.53
G00 X243.03 Y171.462
G00 X242.901 Y171.39
G00 X242.775 Y171.311
G00 X242.652 Y171.227
G00 X242.534 Y171.137
G00 X242.419 Y171.042
G00 X242.31 Y170.942
G00 X242.204 Y170.837
G00 X242.104 Y170.727
G00 X242.009 Y170.613
G00 X241.919 Y170.494
G00 X241.835 Y170.372
G00 X241.756 Y170.246
G00 X241.684 Y170.116
G00 X241.616 Y169.983
G00 X241.556 Y169.848
G00 X241.501 Y169.709
G00 X241.453 Y169.569
G00 X241.411 Y169.426
G00 X241.376 Y169.282
G00 X241.347 Y169.136
G00 X241.325 Y168.989
G00 X241.31 Y168.841
G00 X241.302 Y168.692
G00 X241.3 Y168.544
G00 X241.305 Y168.395
G00 X241.317 Y168.247
G00 X241.336 Y168.1
G00 X241.361 Y167.953
G00 X241.392 Y167.808
G00 X241.431 Y167.664
G00 X241.476 Y167.522
G00 X241.527 Y167.383
G00 X241.585 Y167.246
G00 X241.649 Y167.111
G00 X241.719 Y166.98
G00 X241.795 Y166.852
G00 X241.876 Y166.728
G00 X241.963 Y166.608
G00 X242.056 Y166.491
G00 X242.153 Y166.379
G00 X242.171 Y166.361
G00 X253.934 Y153.366
G00 X254.019 Y153.276
G00 X254.125 Y153.172
G00 X267 Y141.14
G00 X267.061 Y141.084
G00 X272.097 Y136.613
G00 X275.525 Y132.387
G00 X275.746 Y124.729
G00 X275.746 Y112.343
G00 X274.059 Y113.932
G00 X260.462 Y127.521
G00 X220.925 Y167.065
G00 X204.791 Y183.179
G00 X202.511 Y185.735
G00 X311.707 Y185.735
G00 X320.421 Y185.566
G00 X328.235 Y183.634
G00 X336.87 Y177.462
G00 X341.782 Y169.288
G00 X344.087 Y159.328
G00 X344.647 Y148.089
G00 X344.647 Y68.253
G00 X344.099 Y48.593
G00 X341.769 Y40.119
G00 X336.623 Y32.687
G00 X329.469 Y27.579
G00 X321.732 Y25.121
G00 X320.574 Y31.605
G00 X313.484 Y31.278
G00 X313.664 Y31.298
G00 X313.812 Y31.317
G00 X313.962 Y31.339
G00 X320.78 Y32.411
G00 X320.909 Y32.432
G00 X321.036 Y32.455
G00 X321.306 Y32.509
G00 X321.451 Y32.541
G00 X321.748 Y32.614
G00 X321.892 Y32.653
G00 X322.176 Y32.737
G00 X322.317 Y32.783
G00 X322.584 Y32.874
G00 X322.724 Y32.926
G00 X322.953 Y33.015
G00 X323.067 Y33.062
G00 X323.312 Y33.169
G00 X323.447 Y33.232
G00 X323.704 Y33.357
G00 X323.836 Y33.425
G00 X324.11 Y33.575
G00 X324.239 Y33.649
G00 X324.36 Y33.721
G00 X329.851 Y37.051
G00 X329.995 Y37.141
G00 X330.145 Y37.237
G00 X330.403 Y37.412
G00 X330.519 Y37.495
G00 X330.742 Y37.66
G00 X330.859 Y37.752
G00 X331.087 Y37.938
G00 X331.201 Y38.034
G00 X331.28 Y38.104
G00 X331.436 Y38.245
G00 X331.544 Y38.347
G00 X331.739 Y38.539
G00 X331.843 Y38.645
G00 X331.924 Y38.728
G00 X332.065 Y38.884
G00 X332.164 Y38.995
G00 X332.341 Y39.204
G00 X332.435 Y39.32
G00 X332.617 Y39.555
G00 X332.706 Y39.674
G00 X332.884 Y39.927
G00 X332.966 Y40.051
G00 X333.121 Y40.294
G00 X333.198 Y40.421
G00 X333.347 Y40.68
G00 X333.418 Y40.81
G00 X333.559 Y41.082
G00 X333.624 Y41.216
G00 X333.684 Y41.344
G00 X335.764 Y45.87
G00 X335.829 Y46.014
G00 X335.92 Y46.23
G00 X335.976 Y46.368
G00 X336.079 Y46.642
G00 X336.128 Y46.782
G00 X336.223 Y47.073
G00 X336.266 Y47.215
G00 X336.344 Y47.5
G00 X336.381 Y47.645
G00 X336.445 Y47.929
G00 X336.475 Y48.075
G00 X336.528 Y48.368
G00 X336.551 Y48.515
G00 X336.591 Y48.815
G00 X336.607 Y48.963
G00 X336.633 Y49.259
G00 X336.643 Y49.408
G00 X336.65 Y49.553
G00 X336.859 Y54.567
G00 X336.863 Y54.692
G00 X336.866 Y54.828
G00 X336.867 Y54.974
G00 X336.867 Y142.109
G00 X337.15 Y155.707
G00 X337.152 Y155.817
G00 X337.152 Y155.906
G00 X337.15 Y156.109
G00 X337.146 Y156.258
G00 X337.14 Y156.417
G00 X337.135 Y156.502
G00 X337.126 Y156.647
G00 X337.115 Y156.789
G00 X337.087 Y157.079
G00 X337.07 Y157.227
G00 X337.03 Y157.508
G00 X337.006 Y157.655
G00 X336.949 Y157.955
G00 X336.918 Y158.101
G00 X336.886 Y158.246
G00 X335.368 Y164.677
G00 X335.335 Y164.811
G00 X335.304 Y164.93
G00 X335.237 Y165.168
G00 X335.195 Y165.31
G00 X335.097 Y165.61
G00 X335.048 Y165.75
G00 X334.948 Y166.014
G00 X334.893 Y166.152
G00 X334.77 Y166.439
G00 X334.708 Y166.574
G00 X334.586 Y166.825
G00 X334.518 Y166.957
G00 X334.372 Y167.227
G00 X334.298 Y167.356
G00 X334.222 Y167.485
G00 X334.209 Y167.507
G00 X334.15 Y167.604
G00 X334.094 Y167.693
G00 X333.961 Y167.897
G00 X333.877 Y168.02
G00 X333.702 Y168.264
G00 X333.613 Y168.383
G00 X333.431 Y168.615
G00 X333.336 Y168.729
G00 X333.24 Y168.844
G00 X329.011 Y173.748
G00 X329.011 Y173.748
G00 X328.955 Y173.814
G00 X328.857 Y173.925
G00 X328.665 Y174.135
G00 X328.562 Y174.242
G00 X328.346 Y174.457
G00 X328.238 Y174.559
G00 X328.02 Y174.757
G00 X327.908 Y174.855
G00 X327.672 Y175.05
G00 X327.555 Y175.142
G00 X327.327 Y175.314
G00 X327.207 Y175.401
G00 X326.948 Y175.578
G00 X326.823 Y175.659
G00 X326.585 Y175.806
G00 X326.457 Y175.882
G00 X326.189 Y176.031
G00 X326.058 Y176.101
G00 X325.928 Y176.168
G00 X325.911 Y176.176
G00 X325.757 Y176.25
G00 X325.6 Y176.324
G00 X325.492 Y176.373
G00 X325.299 Y176.456
G00 X325.161 Y176.512
G00 X324.885 Y176.617
G00 X324.745 Y176.667
G00 X324.605 Y176.715
G00 X319.935 Y178.259
G00 X319.787 Y178.306
G00 X319.635 Y178.352
G00 X319.53 Y178.383
G00 X319.327 Y178.438
G00 X319.184 Y178.474
G00 X318.91 Y178.537
G00 X318.764 Y178.567
G00 X318.456 Y178.623
G00 X318.31 Y178.646
G00 X318.024 Y178.684
G00 X317.877 Y178.701
G00 X317.58 Y178.727
G00 X317.432 Y178.737
G00 X317.281 Y178.745
G00 X311.433 Y178.996
G00 X311.254 Y179.002
G00 X311.08 Y179.004
G00 X310.77 Y179.002
G00 X310.621 Y178.997
G00 X310.464 Y178.99
G00 X299.576 Y178.38
G00 X244.586 Y178.38
G00 X244.363 Y178.376
G00 X244.145 Y178.369
G00 X243.997 Y178.362
G00 X243.787 Y178.347
G00 X243.639 Y178.334
G00 X243.342 Y178.3
G00 X243.195 Y178.28
G00 X242.898 Y178.233
G00 X242.752 Y178.206
G00 X242.607 Y178.178
G00 X242.585 Y178.174
G00 X242.401 Y178.133
G00 X242.217 Y178.089
G00 X242.092 Y178.058
G00 X241.889 Y178.003
G00 X241.747 Y177.961
G00 X241.455 Y177.869
G00 X241.315 Y177.82
G00 X241.045 Y177.721
G00 X240.907 Y177.666
G00 X240.631 Y177.551
G00 X240.496 Y177.49
G00 X240.225 Y177.361
G00 X240.092 Y177.294
G00 X239.834 Y177.157
G00 X239.704 Y177.084
G00 X239.445 Y176.931
G00 X239.319 Y176.852
G00 X239.074 Y176.691
G00 X238.951 Y176.607
G00 X238.701 Y176.426
G00 X238.583 Y176.336
G00 X238.359 Y176.158
G00 X238.245 Y176.063
G00 X238.015 Y175.863
G00 X237.905 Y175.763
G00 X237.7 Y175.566
G00 X237.594 Y175.462
G00 X237.383 Y175.241
G00 X237.283 Y175.131
G00 X237.083 Y174.902
G00 X236.988 Y174.787
G00 X236.803 Y174.554
G00 X236.713 Y174.436
G00 X236.551 Y174.212
G00 X236.466 Y174.09
G00 X236.404 Y173.998
G00 X236.29 Y173.821
G00 X236.211 Y173.695
G00 X236.062 Y173.442
G00 X235.989 Y173.312
G00 X235.855 Y173.06
G00 X235.788 Y172.928
G00 X235.659 Y172.657
G00 X235.598 Y172.522
G00 X235.481 Y172.244
G00 X235.427 Y172.106
G00 X235.321 Y171.819
G00 X235.273 Y171.678
G00 X235.189 Y171.414
G00 X235.147 Y171.271
G00 X235.067 Y170.971
G00 X235.031 Y170.827
G00 X234.966 Y170.531
G00 X234.938 Y170.385
G00 X234.889 Y170.103
G00 X234.867 Y169.956
G00 X234.83 Y169.658
G00 X234.814 Y169.51
G00 X234.791 Y169.212
G00 X234.782 Y169.064
G00 X234.772 Y168.767
G00 X234.77 Y168.618
G00 X234.774 Y168.321
G00 X234.779 Y168.172
G00 X234.796 Y167.875
G00 X234.808 Y167.726
G00 X234.838 Y167.428
G00 X234.857 Y167.28
G00 X234.899 Y166.999
G00 X234.924 Y166.853
G00 X234.982 Y166.555
G00 X235.014 Y166.41
G00 X235.086 Y166.112
G00 X235.125 Y165.969
G00 X235.207 Y165.688
G00 X235.252 Y165.547
G00 X235.35 Y165.262
G00 X235.401 Y165.123
G00 X235.506 Y164.856
G00 X235.564 Y164.719
G00 X235.689 Y164.439
G00 X235.753 Y164.305
G00 X235.885 Y164.043
G00 X235.954 Y163.912
G00 X236.101 Y163.651
G00 X236.177 Y163.523
G00 X236.336 Y163.268
G00 X236.418 Y163.144
G00 X236.582 Y162.906
G00 X236.669 Y162.785
G00 X236.848 Y162.548
G00 X236.94 Y162.432
G00 X237.136 Y162.196
G00 X237.234 Y162.084
G00 X237.305 Y162.005
G00 X237.333 Y161.975
G00 X249.093 Y148.984
G00 X249.176 Y148.894
G00 X249.261 Y148.803
G00 X249.454 Y148.607
G00 X249.56 Y148.503
G00 X249.667 Y148.401
G00 X262.541 Y136.369
G00 X262.661 Y136.259
G00 X267.363 Y132.084
G00 X269.061 Y129.99
G00 X269.116 Y128.104
G00 X265.078 Y132.14
G00 X225.543 Y171.683
G00 X218.011 Y179.205
G00 X311.632 Y179.205
G00 X319.563 Y179.051
G00 X325.456 Y177.594
G00 X331.971 Y172.937
G00 X335.653 Y166.811
G00 X337.594 Y158.422
G00 X338.117 Y147.926
G00 X338.117 Y68.35
G00 X337.593 Y49.564
G00 X335.768 Y42.922
G00 X331.902 Y37.34
;Nearing path end, moving to preshutoff position
G00 X327.468 Y34.173
M107 ;Pump off
G00 X326.512 Y33.491
G00 X320.574 Y31.605
G4 P250 ;Pause for 250 milliseconds
;Completed path #3/3 on color #1
;PancakePainter Footer Start
G4 P1000 ;Pause for 1000 milliseconds
G00 X1 Y1 ;Help homing
G28 X0 Y0 ;Home All Axis
M84 ;Motors off
;PancakePainter Footer Complete
